<?xml version="1.0" encoding="UTF-8"?>
<map version="1.10" tiledversion="1.12.1" orientation="orthogonal" renderorder="right-down" width="200" height="50" tilewidth="18" tileheight="18" infinite="0" nextlayerid="6" nextobjectid="42">
 <editorsettings>
  <export target="platformer-level-1.json" format="json"/>
 </editorsettings>
 <tileset firstgid="1" name="tilemap_packed" tilewidth="18" tileheight="18" tilecount="180" columns="20">
  <image source="tilemap_packed.png" width="360" height="162"/>
  <tile id="0">
   <properties>
    <property name="collides" type="bool" value="true"/>
    <property name="collision" type="bool" value="true"/>
   </properties>
  </tile>
  <tile id="1">
   <properties>
    <property name="collides" type="bool" value="true"/>
    <property name="collision" type="bool" value="true"/>
   </properties>
  </tile>
  <tile id="2">
   <properties>
    <property name="collides" type="bool" value="true"/>
    <property name="collision" type="bool" value="true"/>
   </properties>
  </tile>
  <tile id="3">
   <properties>
    <property name="collides" type="bool" value="true"/>
    <property name="collision" type="bool" value="true"/>
   </properties>
  </tile>
  <tile id="16">
   <properties>
    <property name="collides" type="bool" value="true"/>
    <property name="collision" type="bool" value="true"/>
   </properties>
  </tile>
  <tile id="17">
   <properties>
    <property name="collides" type="bool" value="true"/>
    <property name="collision" type="bool" value="true"/>
   </properties>
  </tile>
  <tile id="18">
   <properties>
    <property name="collides" type="bool" value="true"/>
    <property name="collision" type="bool" value="true"/>
   </properties>
  </tile>
  <tile id="19">
   <properties>
    <property name="collides" type="bool" value="true"/>
    <property name="collision" type="bool" value="true"/>
   </properties>
  </tile>
  <tile id="20">
   <properties>
    <property name="collides" type="bool" value="true"/>
    <property name="collision" type="bool" value="true"/>
   </properties>
  </tile>
  <tile id="21">
   <properties>
    <property name="collides" type="bool" value="true"/>
    <property name="collision" type="bool" value="true"/>
   </properties>
  </tile>
  <tile id="22">
   <properties>
    <property name="collides" type="bool" value="true"/>
    <property name="collision" type="bool" value="true"/>
   </properties>
  </tile>
  <tile id="23">
   <properties>
    <property name="collides" type="bool" value="true"/>
    <property name="collision" type="bool" value="true"/>
   </properties>
  </tile>
  <tile id="33">
   <properties>
    <property name="water" type="bool" value="true"/>
   </properties>
  </tile>
  <tile id="36">
   <properties>
    <property name="collides" type="bool" value="true"/>
    <property name="collision" type="bool" value="true"/>
   </properties>
  </tile>
  <tile id="37">
   <properties>
    <property name="collides" type="bool" value="true"/>
    <property name="collision" type="bool" value="true"/>
   </properties>
  </tile>
  <tile id="38">
   <properties>
    <property name="collides" type="bool" value="true"/>
    <property name="collision" type="bool" value="true"/>
   </properties>
  </tile>
  <tile id="39">
   <properties>
    <property name="collides" type="bool" value="true"/>
    <property name="collision" type="bool" value="true"/>
   </properties>
  </tile>
  <tile id="40">
   <properties>
    <property name="collides" type="bool" value="true"/>
    <property name="collision" type="bool" value="true"/>
   </properties>
  </tile>
  <tile id="41">
   <properties>
    <property name="collides" type="bool" value="true"/>
    <property name="collision" type="bool" value="true"/>
   </properties>
  </tile>
  <tile id="42">
   <properties>
    <property name="collides" type="bool" value="true"/>
    <property name="collision" type="bool" value="true"/>
   </properties>
  </tile>
  <tile id="43">
   <properties>
    <property name="collides" type="bool" value="true"/>
    <property name="collision" type="bool" value="true"/>
   </properties>
  </tile>
  <tile id="47">
   <properties>
    <property name="collision" type="bool" value="true"/>
   </properties>
  </tile>
  <tile id="48">
   <properties>
    <property name="collision" type="bool" value="true"/>
   </properties>
  </tile>
  <tile id="49">
   <properties>
    <property name="collision" type="bool" value="true"/>
   </properties>
  </tile>
  <tile id="50">
   <properties>
    <property name="collision" type="bool" value="true"/>
   </properties>
  </tile>
  <tile id="53">
   <properties>
    <property name="water" type="bool" value="true"/>
   </properties>
  </tile>
  <tile id="56">
   <properties>
    <property name="collides" type="bool" value="true"/>
    <property name="collision" type="bool" value="true"/>
   </properties>
  </tile>
  <tile id="57">
   <properties>
    <property name="collides" type="bool" value="true"/>
    <property name="collision" type="bool" value="true"/>
   </properties>
  </tile>
  <tile id="58">
   <properties>
    <property name="collides" type="bool" value="true"/>
    <property name="collision" type="bool" value="true"/>
   </properties>
  </tile>
  <tile id="59">
   <properties>
    <property name="collides" type="bool" value="true"/>
    <property name="collision" type="bool" value="true"/>
   </properties>
  </tile>
  <tile id="60">
   <properties>
    <property name="collides" type="bool" value="true"/>
    <property name="collision" type="bool" value="true"/>
   </properties>
  </tile>
  <tile id="61">
   <properties>
    <property name="collides" type="bool" value="true"/>
    <property name="collision" type="bool" value="true"/>
   </properties>
  </tile>
  <tile id="62">
   <properties>
    <property name="collides" type="bool" value="true"/>
    <property name="collision" type="bool" value="true"/>
   </properties>
  </tile>
  <tile id="63">
   <properties>
    <property name="collides" type="bool" value="true"/>
    <property name="collision" type="bool" value="true"/>
   </properties>
  </tile>
  <tile id="73">
   <properties>
    <property name="water" type="bool" value="true"/>
   </properties>
  </tile>
  <tile id="76">
   <properties>
    <property name="collides" type="bool" value="true"/>
    <property name="collision" type="bool" value="true"/>
   </properties>
  </tile>
  <tile id="77">
   <properties>
    <property name="collides" type="bool" value="true"/>
    <property name="collision" type="bool" value="true"/>
   </properties>
  </tile>
  <tile id="78">
   <properties>
    <property name="collides" type="bool" value="true"/>
    <property name="collision" type="bool" value="true"/>
   </properties>
  </tile>
  <tile id="79">
   <properties>
    <property name="collides" type="bool" value="true"/>
    <property name="collision" type="bool" value="true"/>
   </properties>
  </tile>
  <tile id="80">
   <properties>
    <property name="collides" type="bool" value="true"/>
    <property name="collision" type="bool" value="true"/>
   </properties>
  </tile>
  <tile id="81">
   <properties>
    <property name="collides" type="bool" value="true"/>
    <property name="collision" type="bool" value="true"/>
   </properties>
  </tile>
  <tile id="82">
   <properties>
    <property name="collides" type="bool" value="true"/>
    <property name="collision" type="bool" value="true"/>
   </properties>
  </tile>
  <tile id="83">
   <properties>
    <property name="collides" type="bool" value="true"/>
    <property name="collision" type="bool" value="true"/>
   </properties>
  </tile>
  <tile id="93">
   <properties>
    <property name="collides" type="bool" value="true"/>
    <property name="collision" type="bool" value="true"/>
   </properties>
  </tile>
  <tile id="94">
   <properties>
    <property name="collides" type="bool" value="true"/>
    <property name="collision" type="bool" value="true"/>
   </properties>
  </tile>
  <tile id="95">
   <properties>
    <property name="collides" type="bool" value="true"/>
    <property name="collision" type="bool" value="true"/>
   </properties>
  </tile>
  <tile id="97">
   <properties>
    <property name="collides" type="bool" value="true"/>
    <property name="collision" type="bool" value="true"/>
   </properties>
  </tile>
  <tile id="100">
   <properties>
    <property name="collides" type="bool" value="true"/>
    <property name="collision" type="bool" value="true"/>
   </properties>
  </tile>
  <tile id="101">
   <properties>
    <property name="collides" type="bool" value="true"/>
    <property name="collision" type="bool" value="true"/>
   </properties>
  </tile>
  <tile id="102">
   <properties>
    <property name="collides" type="bool" value="true"/>
    <property name="collision" type="bool" value="true"/>
   </properties>
  </tile>
  <tile id="103">
   <properties>
    <property name="collides" type="bool" value="true"/>
    <property name="collision" type="bool" value="true"/>
   </properties>
  </tile>
  <tile id="113">
   <properties>
    <property name="collides" type="bool" value="true"/>
    <property name="collision" type="bool" value="true"/>
   </properties>
  </tile>
  <tile id="114">
   <properties>
    <property name="collides" type="bool" value="true"/>
    <property name="collision" type="bool" value="true"/>
   </properties>
  </tile>
  <tile id="115">
   <properties>
    <property name="collides" type="bool" value="true"/>
    <property name="collision" type="bool" value="true"/>
   </properties>
  </tile>
  <tile id="120">
   <properties>
    <property name="collides" type="bool" value="true"/>
    <property name="collision" type="bool" value="true"/>
   </properties>
  </tile>
  <tile id="121">
   <properties>
    <property name="collides" type="bool" value="true"/>
    <property name="collision" type="bool" value="true"/>
   </properties>
  </tile>
  <tile id="122">
   <properties>
    <property name="collides" type="bool" value="true"/>
    <property name="collision" type="bool" value="true"/>
   </properties>
  </tile>
  <tile id="123">
   <properties>
    <property name="collides" type="bool" value="true"/>
    <property name="collision" type="bool" value="true"/>
   </properties>
  </tile>
  <tile id="132">
   <properties>
    <property name="collides" type="bool" value="true"/>
    <property name="collision" type="bool" value="true"/>
   </properties>
  </tile>
  <tile id="133">
   <properties>
    <property name="collides" type="bool" value="true"/>
    <property name="collision" type="bool" value="true"/>
   </properties>
  </tile>
  <tile id="134">
   <properties>
    <property name="collides" type="bool" value="true"/>
    <property name="collision" type="bool" value="true"/>
   </properties>
  </tile>
  <tile id="135">
   <properties>
    <property name="collides" type="bool" value="true"/>
    <property name="collision" type="bool" value="true"/>
   </properties>
  </tile>
  <tile id="140">
   <properties>
    <property name="collides" type="bool" value="true"/>
    <property name="collision" type="bool" value="true"/>
   </properties>
  </tile>
  <tile id="141">
   <properties>
    <property name="collides" type="bool" value="true"/>
    <property name="collision" type="bool" value="true"/>
   </properties>
  </tile>
  <tile id="142">
   <properties>
    <property name="collides" type="bool" value="true"/>
    <property name="collision" type="bool" value="true"/>
   </properties>
  </tile>
  <tile id="143">
   <properties>
    <property name="collides" type="bool" value="true"/>
    <property name="collision" type="bool" value="true"/>
   </properties>
  </tile>
  <tile id="153">
   <properties>
    <property name="collides" type="bool" value="true"/>
    <property name="collision" type="bool" value="true"/>
   </properties>
  </tile>
  <tile id="154">
   <properties>
    <property name="collides" type="bool" value="true"/>
    <property name="collision" type="bool" value="true"/>
   </properties>
  </tile>
  <tile id="155">
   <properties>
    <property name="collides" type="bool" value="true"/>
    <property name="collision" type="bool" value="true"/>
   </properties>
  </tile>
  <tile id="156">
   <properties>
    <property name="collides" type="bool" value="true"/>
   </properties>
  </tile>
 </tileset>
 <tileset firstgid="181" name="tilemap-backgrounds_packed" tilewidth="18" tileheight="18" tilecount="40" columns="10">
  <image source="tilemap-backgrounds_packed.png" width="192" height="72"/>
 </tileset>
 <tileset firstgid="221" name="tilemap-backgrounds_packed" tilewidth="16" tileheight="16" tilecount="48" columns="12">
  <image source="tilemap-backgrounds_packed.png" width="192" height="72"/>
 </tileset>
 <layer id="4" name="Background" width="200" height="50">
  <data encoding="csv">
187,188,187,188,187,188,187,188,187,188,187,188,187,188,187,188,187,188,187,188,187,188,187,188,187,188,190,190,190,190,190,190,190,190,190,190,190,190,190,190,190,190,190,190,190,190,190,190,190,190,190,190,190,190,190,190,190,190,190,190,190,190,190,190,190,190,190,190,190,190,190,190,190,190,190,190,190,190,190,190,190,190,190,190,190,190,190,190,190,190,190,190,190,190,190,190,190,190,190,190,190,190,190,190,190,190,190,190,190,190,190,190,190,190,190,190,190,190,190,190,190,190,190,190,190,190,190,190,190,190,190,190,190,190,190,190,190,190,190,190,190,190,190,190,190,190,190,190,190,190,190,190,190,190,190,190,190,190,190,190,190,190,190,190,190,190,190,190,190,190,190,190,190,190,190,190,190,190,190,190,190,190,190,190,190,190,190,190,190,190,190,190,190,190,190,190,190,190,190,190,
187,188,187,188,187,188,187,188,187,188,187,188,187,188,187,188,187,188,187,188,187,188,187,188,187,188,190,190,190,190,190,190,190,190,190,190,190,190,190,190,190,190,190,190,190,190,190,190,190,190,190,190,190,190,190,190,190,190,190,190,190,190,190,190,190,190,190,190,190,190,190,190,190,190,190,190,190,190,190,190,190,190,190,190,190,190,190,190,190,190,190,190,190,190,190,190,190,190,190,190,190,190,190,190,190,190,190,190,190,190,190,190,190,190,190,190,190,190,190,190,190,190,190,190,190,190,190,190,190,190,190,190,190,190,190,190,190,190,190,190,190,190,190,190,190,190,190,190,190,190,190,190,190,190,190,190,190,190,190,190,190,190,190,190,190,190,190,190,190,190,190,190,190,190,190,190,190,190,190,190,190,190,190,190,190,190,190,190,190,190,190,190,190,190,190,190,190,190,190,190,
187,188,187,188,187,188,187,188,187,188,187,188,187,188,187,188,187,188,187,188,187,188,187,188,187,188,190,190,190,190,190,190,190,190,190,190,190,190,190,190,190,190,190,190,190,190,190,190,190,190,190,190,190,190,190,190,190,190,190,190,190,190,190,190,190,190,190,190,190,190,190,190,190,190,190,190,190,190,190,190,190,190,190,190,190,190,190,190,190,190,190,190,190,190,190,190,190,190,190,190,190,190,190,190,190,190,190,190,190,190,190,190,190,190,190,190,190,190,190,190,190,190,190,190,190,190,190,190,190,190,190,190,190,190,190,190,190,190,190,190,190,190,190,190,190,190,190,190,190,190,190,190,190,190,190,190,190,190,190,190,190,190,190,190,190,190,190,190,190,190,190,190,190,190,190,190,190,190,190,190,190,190,190,190,190,190,190,190,190,190,190,190,190,190,190,190,190,190,190,190,
187,188,187,188,187,188,187,188,187,188,187,188,187,188,187,188,187,188,187,188,187,188,187,188,187,188,190,190,190,190,190,190,190,190,190,190,190,190,190,190,190,190,190,190,190,190,190,190,190,190,190,190,190,190,190,190,190,190,190,190,190,190,190,190,190,190,190,190,190,190,190,190,190,190,190,190,190,190,190,190,190,190,190,190,190,190,190,190,190,190,190,190,190,190,190,190,190,190,190,190,190,190,190,190,190,190,190,190,190,190,190,190,190,190,190,190,190,190,190,190,190,190,190,190,190,190,190,190,190,190,190,190,190,190,190,190,190,190,190,190,190,190,190,190,190,190,190,190,190,190,190,190,190,190,190,190,190,190,190,190,190,190,190,190,190,190,190,190,190,190,190,190,190,190,190,190,190,190,190,190,190,190,190,190,190,190,190,190,190,190,190,190,190,190,190,190,190,190,190,190,
187,188,187,188,187,188,187,188,187,188,187,188,187,188,187,188,187,188,187,188,187,188,187,188,187,188,190,190,190,190,190,190,190,190,190,190,190,190,190,190,190,190,190,190,190,190,190,190,190,190,190,190,190,190,190,190,190,190,190,190,190,190,190,190,190,190,190,190,190,190,190,190,190,190,190,190,190,190,190,190,190,190,190,190,190,190,190,190,190,190,190,190,190,190,190,190,190,190,190,190,190,190,190,190,190,190,190,190,190,190,190,190,190,190,190,190,190,190,190,190,190,190,190,190,190,190,190,190,190,190,190,190,190,190,190,190,190,190,190,190,190,190,190,190,190,190,190,190,190,190,190,190,190,190,190,190,190,190,190,190,190,190,190,190,190,190,190,190,190,190,190,190,190,190,190,190,190,190,190,190,190,190,190,190,190,190,190,190,190,190,190,190,190,190,190,190,190,190,190,190,
187,188,187,188,187,188,187,188,187,188,187,188,187,188,187,188,187,188,187,188,187,188,187,188,187,188,190,190,190,190,190,190,190,190,190,190,190,190,190,190,190,190,190,190,190,190,190,190,190,190,190,190,190,190,190,190,190,190,190,190,190,190,190,190,190,190,190,190,190,190,190,190,190,190,190,190,190,190,190,190,190,190,190,190,190,190,190,190,190,190,190,190,190,190,190,190,190,190,190,190,190,190,190,190,190,190,190,190,190,190,190,190,190,190,190,190,190,190,190,190,190,190,190,190,190,190,190,190,190,190,190,190,190,190,190,190,190,190,190,190,190,190,190,190,190,190,190,190,190,190,190,190,190,190,190,190,190,190,190,190,190,190,190,190,190,190,190,190,190,190,190,190,190,190,190,190,190,190,190,190,190,190,190,190,190,190,190,190,190,190,190,190,190,190,190,190,190,190,190,190,
187,188,187,188,187,188,187,188,187,188,187,188,187,188,187,188,187,188,187,188,187,188,187,188,187,188,190,190,190,190,190,190,190,190,190,190,190,190,190,190,190,190,190,190,190,190,190,190,190,190,190,190,190,190,190,190,190,190,190,190,190,190,190,190,190,190,190,190,190,190,190,190,190,190,190,190,190,190,190,190,190,190,190,190,190,190,190,190,190,190,190,190,190,190,190,190,190,190,190,190,190,190,190,190,190,190,190,190,190,190,190,190,190,190,190,190,190,190,190,190,190,190,190,190,190,190,190,190,190,190,190,190,190,190,190,190,190,190,190,190,190,190,190,190,190,190,190,190,190,190,190,190,190,190,190,190,190,190,190,190,190,190,190,190,190,190,190,190,190,190,190,190,190,190,190,190,190,190,190,190,190,190,190,190,190,190,190,190,190,190,190,190,190,190,190,190,190,190,190,190,
187,188,187,188,187,188,187,188,187,188,187,188,187,188,187,188,187,188,187,188,187,188,187,188,187,188,190,190,190,190,190,190,190,190,190,190,190,190,190,190,190,190,190,190,190,190,190,190,190,190,190,190,190,190,190,190,190,190,190,190,190,190,190,190,190,190,190,190,190,190,190,190,190,190,190,190,190,190,190,190,190,190,190,190,190,190,190,190,190,190,190,190,190,190,190,190,190,190,190,190,190,190,190,190,190,190,190,190,190,190,190,190,190,190,190,190,190,190,190,190,190,190,190,190,190,190,190,190,190,190,190,190,190,190,190,190,190,190,190,190,190,190,190,190,190,190,190,190,190,190,190,190,190,190,190,190,190,190,190,190,190,190,190,190,190,190,190,190,190,190,190,190,190,190,190,190,190,190,190,190,190,190,190,190,190,190,190,190,190,190,190,190,190,190,190,190,190,190,190,190,
187,188,187,188,187,188,187,188,187,188,187,188,187,188,187,188,187,188,187,188,187,188,187,188,187,188,190,190,190,190,190,190,190,190,190,190,190,190,190,190,190,190,190,190,190,190,190,190,190,190,190,190,190,190,190,190,190,190,190,190,190,190,190,190,190,190,190,190,190,190,190,190,190,190,190,190,190,190,190,190,190,190,190,190,190,190,190,190,190,190,190,190,190,190,190,190,190,190,190,190,190,190,190,190,190,190,190,190,190,190,190,190,190,190,190,190,190,190,190,190,190,190,190,190,190,190,190,190,190,190,190,190,190,190,190,190,190,190,190,190,190,190,190,190,190,190,190,190,190,190,190,190,190,190,190,190,190,190,190,190,190,190,190,190,190,190,190,190,190,190,190,190,190,190,190,190,190,190,190,190,190,190,190,190,190,190,190,190,190,190,190,190,190,190,190,190,190,190,190,190,
187,188,187,188,187,188,187,188,187,188,187,188,187,188,187,188,187,188,187,188,187,188,187,188,187,188,190,190,190,190,190,190,190,190,190,190,190,190,190,190,190,190,190,190,190,190,190,190,190,190,190,190,190,190,190,190,190,190,190,190,190,190,190,190,190,190,190,190,190,190,190,190,190,190,190,190,190,190,190,190,190,190,190,190,190,190,190,190,190,190,190,190,190,190,190,190,190,190,190,190,190,190,190,190,190,190,190,190,190,190,190,190,190,190,190,190,190,190,190,190,190,190,190,190,190,190,190,190,190,190,190,190,190,190,190,190,190,190,190,190,190,190,190,190,190,190,190,190,190,190,190,190,190,190,190,190,190,190,190,190,190,190,190,190,190,190,190,190,190,190,190,190,190,190,190,190,190,190,190,190,190,190,190,190,190,190,190,190,190,190,190,190,190,190,190,190,190,190,190,190,
187,188,187,188,187,188,187,188,187,188,187,188,187,188,187,188,187,188,187,188,187,188,187,188,187,188,190,190,190,190,190,190,190,190,190,190,190,190,190,190,190,190,190,190,190,190,190,190,190,190,190,190,190,190,190,190,190,190,190,190,190,190,190,190,190,190,190,190,190,190,190,190,190,190,190,190,190,190,190,190,190,190,190,190,190,190,190,190,190,190,190,190,190,190,190,190,190,190,190,190,190,190,190,190,190,190,190,190,190,190,190,190,190,190,190,190,190,190,190,190,190,190,190,190,190,190,190,190,190,190,190,190,190,190,190,190,190,190,190,190,190,190,190,190,190,190,190,190,190,190,190,190,190,190,190,190,190,190,190,190,190,190,190,190,190,190,190,190,190,190,190,190,190,190,190,190,190,190,190,190,190,190,190,190,190,190,190,190,190,190,190,190,190,190,190,190,190,190,190,190,
187,188,187,188,187,188,187,188,187,188,187,188,187,188,187,188,187,188,187,188,187,188,187,188,187,188,190,190,190,190,190,190,190,190,190,190,190,190,190,190,190,190,190,190,190,190,190,190,190,190,190,190,190,190,190,190,190,190,190,190,190,190,190,190,190,190,190,190,190,190,190,190,190,190,190,190,190,190,190,190,190,190,190,190,190,190,190,190,190,190,190,190,190,190,190,190,190,190,190,190,190,190,190,190,190,190,190,190,190,190,190,190,190,190,190,190,190,190,190,190,190,190,190,190,190,190,190,190,190,190,190,190,190,190,190,190,190,190,190,190,190,190,190,190,190,190,190,190,190,190,190,190,190,190,190,190,190,190,190,190,190,190,190,190,190,190,190,190,190,190,190,190,190,190,190,190,190,190,190,190,190,190,190,190,190,190,190,190,190,190,190,190,190,190,190,190,190,190,190,190,
187,188,187,188,187,188,187,188,187,188,187,188,187,188,187,188,187,188,187,188,187,188,187,188,187,188,190,190,190,190,190,190,190,190,190,190,190,190,190,190,190,190,190,190,190,190,190,190,190,190,190,190,190,190,190,190,190,190,190,190,190,190,190,190,190,190,190,190,190,190,190,190,190,190,190,190,190,190,190,190,190,190,190,190,190,190,190,190,190,190,190,190,190,190,190,190,190,190,190,190,190,190,190,190,190,190,190,190,190,190,190,190,190,190,190,190,190,190,190,190,190,190,190,190,190,190,190,190,190,190,190,190,190,190,190,190,190,190,190,190,190,190,190,190,190,190,190,190,190,190,190,190,190,190,190,190,190,190,190,190,190,190,190,190,190,190,190,190,190,190,190,190,190,190,190,190,190,190,190,190,190,190,190,190,190,190,190,190,190,190,190,190,190,190,190,190,190,190,190,190,
187,188,187,188,187,188,187,188,187,188,187,188,187,188,187,188,187,188,187,188,187,188,187,188,187,188,190,190,190,190,190,190,190,190,190,190,190,190,190,190,190,190,190,190,190,190,190,190,190,190,190,190,190,190,190,190,190,190,190,190,190,190,190,190,190,190,190,190,190,190,190,190,190,190,190,190,190,190,190,190,190,190,190,190,190,190,190,190,190,190,190,190,190,190,190,190,190,190,190,190,190,190,190,190,190,190,190,190,190,190,190,190,190,190,190,190,190,190,190,190,190,190,190,190,190,190,190,190,190,190,190,190,190,190,190,190,190,190,190,190,190,190,190,190,190,190,190,190,190,190,190,190,190,190,190,190,190,190,190,190,190,190,190,190,190,190,190,190,190,190,190,190,190,190,190,190,190,190,190,190,190,190,190,190,190,190,190,190,190,190,190,190,190,190,190,190,190,190,190,190,
187,188,187,188,187,188,187,188,187,188,187,188,187,188,187,188,187,188,187,188,187,188,187,188,187,188,190,190,190,190,190,190,190,190,190,190,190,190,190,190,190,190,190,190,190,190,190,190,190,190,190,190,190,190,190,190,190,190,190,190,190,190,190,190,190,190,190,190,190,190,190,190,190,190,190,190,190,190,190,190,190,190,190,190,190,190,190,190,190,190,190,190,190,190,190,190,190,190,190,190,190,190,190,190,190,190,190,190,190,190,190,190,190,190,190,190,190,190,190,190,190,190,190,190,190,190,190,190,190,190,190,190,190,190,190,190,190,190,190,190,190,190,190,190,190,190,190,190,190,190,190,190,190,190,190,190,190,190,190,190,190,190,190,190,190,190,190,190,190,190,190,190,190,190,190,190,190,190,190,190,190,190,190,190,190,190,190,190,190,190,190,190,190,190,190,190,190,190,190,190,
187,188,187,188,187,188,187,188,187,188,187,188,187,188,187,188,187,188,187,188,187,188,187,188,187,188,190,190,190,190,190,190,190,190,190,190,190,190,190,190,190,190,190,190,190,190,190,190,190,190,190,190,190,190,190,190,190,190,190,190,190,190,190,190,190,190,190,190,190,190,190,190,190,190,190,190,190,190,190,190,190,190,190,190,190,190,190,190,190,190,190,190,190,190,190,190,190,190,190,190,190,190,190,190,190,190,190,190,190,190,190,190,190,190,190,190,190,190,190,190,190,190,190,190,190,190,190,190,190,190,190,190,190,190,190,190,190,190,190,190,190,190,190,190,190,190,190,190,190,190,190,190,190,190,190,190,190,190,190,190,190,190,190,190,190,190,190,190,190,190,190,190,190,190,190,190,190,190,190,190,190,190,190,190,190,190,190,190,190,190,190,190,190,190,190,190,190,190,190,190,
187,188,187,188,187,188,187,188,187,188,187,188,187,188,187,188,187,188,187,188,187,188,187,188,187,188,190,190,190,190,190,190,190,190,190,190,190,190,190,190,190,190,190,190,190,190,190,190,190,190,190,190,190,190,190,190,190,190,190,190,190,190,190,190,190,190,190,190,190,190,190,190,190,190,190,190,190,190,190,190,190,190,190,190,190,190,190,190,190,190,190,190,190,190,190,190,190,190,190,190,190,190,190,190,190,190,190,190,190,190,190,190,190,190,190,190,190,190,190,190,190,190,190,190,190,190,190,190,190,190,190,190,190,190,190,190,190,190,190,190,190,190,190,190,190,190,190,190,190,190,190,190,190,190,190,190,190,190,190,190,190,190,190,190,190,190,190,190,190,190,190,190,190,190,190,190,190,190,190,190,190,190,190,190,190,190,190,190,190,190,190,190,190,190,190,190,190,190,190,190,
187,188,187,188,187,188,187,188,187,188,187,188,187,188,187,188,187,188,187,188,187,188,187,188,187,188,190,190,190,190,190,190,190,190,190,190,190,190,190,190,190,190,190,190,190,190,190,190,190,190,190,190,190,190,190,190,190,190,190,190,190,190,190,190,190,190,190,190,190,190,190,190,190,190,190,190,190,190,190,190,190,190,190,190,190,190,190,190,190,190,190,190,190,190,190,190,190,190,190,190,190,190,190,190,190,190,190,190,190,190,190,190,190,190,190,190,190,190,190,190,190,190,190,190,190,190,190,190,190,190,190,190,190,190,190,190,190,190,190,190,190,190,190,190,190,190,190,190,190,190,190,190,190,190,190,190,190,190,190,190,190,190,190,190,190,190,190,190,190,190,190,190,190,190,190,190,190,190,190,190,190,190,190,190,190,190,190,190,190,190,190,190,190,190,190,190,190,190,190,190,
187,188,187,188,187,188,187,188,187,188,187,188,187,188,187,188,187,188,187,188,187,188,187,188,187,188,190,190,190,190,190,190,190,190,190,190,190,190,190,190,190,190,190,190,190,190,190,190,190,190,190,190,190,190,190,190,190,190,190,190,190,190,190,190,190,190,190,190,190,190,190,190,190,190,190,190,190,190,190,190,190,190,190,190,190,190,190,190,190,190,190,190,190,190,190,190,190,190,190,190,190,190,190,190,190,190,190,190,190,190,190,190,190,190,190,190,190,190,190,190,190,190,190,190,190,190,190,190,190,190,190,190,190,190,190,190,190,190,190,190,190,190,190,190,190,190,190,190,190,190,190,190,190,190,190,190,190,190,190,190,190,190,190,190,190,190,190,190,190,190,190,190,190,190,190,190,190,190,190,190,190,190,190,190,190,190,190,190,190,190,190,190,190,190,190,190,190,190,190,190,
187,188,187,188,187,188,187,188,187,188,187,188,187,188,187,188,187,188,187,188,187,188,187,188,187,188,190,190,190,190,190,190,190,190,190,190,190,190,190,190,190,190,190,190,190,190,190,190,190,190,190,190,190,190,190,190,190,190,190,190,190,190,190,190,190,190,190,190,190,190,190,190,190,190,190,190,190,190,190,190,190,190,190,190,190,190,190,190,190,190,190,190,190,190,190,190,190,190,190,190,190,190,190,190,190,190,190,190,190,190,190,190,190,190,190,190,190,190,190,190,190,190,190,190,190,190,190,190,190,190,190,190,190,190,190,190,190,190,190,190,190,190,190,190,190,190,190,190,190,190,190,190,190,190,190,190,190,190,190,190,190,190,190,190,190,190,190,190,190,190,190,190,190,190,190,190,190,190,190,190,190,190,190,190,190,190,190,190,190,190,190,190,190,190,190,190,190,190,190,190,
187,188,187,188,187,188,187,188,187,188,187,188,187,188,187,188,187,188,187,188,187,188,187,188,187,188,190,190,190,190,190,190,190,190,190,190,190,190,190,190,190,190,190,190,190,190,190,190,190,190,190,190,190,190,190,190,190,190,190,190,190,190,190,190,190,190,190,190,190,190,190,190,190,190,190,190,190,190,190,190,190,190,190,190,190,190,190,190,190,190,190,190,190,190,190,190,190,190,190,190,190,190,190,190,190,190,190,190,190,190,190,190,190,190,190,190,190,190,190,190,190,190,190,190,190,190,190,190,190,190,190,190,190,190,190,190,190,190,190,190,190,190,190,190,190,190,190,190,190,190,190,190,190,190,190,190,190,190,190,190,190,190,190,190,190,190,190,190,190,190,190,190,190,190,190,190,190,190,190,190,190,190,190,190,190,190,190,190,190,190,190,190,190,190,190,190,190,190,190,190,
187,188,187,188,187,188,187,188,187,188,187,188,187,188,187,188,187,188,187,188,187,188,187,188,187,188,190,190,190,190,190,190,190,190,190,190,190,190,190,190,190,190,190,190,190,190,190,190,190,190,190,190,190,190,190,190,190,190,190,190,190,190,190,190,190,190,190,190,190,190,190,190,190,190,190,190,190,190,190,190,190,190,190,190,190,190,190,190,190,190,190,190,190,190,190,190,190,190,190,190,190,190,190,190,190,190,190,190,190,190,190,190,190,190,190,190,190,190,190,190,190,190,190,190,190,190,190,190,190,190,190,190,190,190,190,190,190,190,190,190,190,190,190,190,190,190,190,190,190,190,190,190,190,190,190,190,190,190,190,190,190,190,190,190,190,190,190,190,190,190,190,190,190,190,190,190,190,190,190,190,190,190,190,190,190,190,190,190,190,190,190,190,190,190,190,190,190,190,190,190,
187,188,187,188,187,188,187,188,187,188,187,188,187,188,187,188,187,188,187,188,187,188,187,188,187,188,190,190,190,190,190,190,190,190,190,190,190,190,190,190,190,190,190,190,190,190,190,190,190,190,190,190,190,190,190,190,190,190,190,190,190,190,190,190,190,190,190,190,190,190,190,190,190,190,190,190,190,190,190,190,190,190,190,190,190,190,190,190,190,190,190,190,190,190,190,190,190,190,190,190,190,190,190,190,190,190,190,190,190,190,190,190,190,190,190,190,190,190,190,190,190,190,190,190,190,190,190,190,190,190,190,190,190,190,190,190,190,190,190,190,190,190,190,190,190,190,190,190,190,190,190,190,190,190,190,190,190,190,190,190,190,190,190,190,190,190,190,190,190,190,190,190,190,190,190,190,190,190,190,190,190,190,190,190,190,190,190,190,190,190,190,190,190,190,190,190,190,190,190,190,
187,188,187,188,187,188,187,188,187,188,187,188,187,188,187,188,187,188,187,188,187,188,187,188,187,188,190,190,190,190,190,190,190,190,190,190,190,190,190,190,190,190,190,190,190,190,190,190,190,190,190,190,190,190,190,190,190,190,190,190,190,190,190,190,190,190,190,190,190,190,190,190,190,190,190,190,190,190,190,190,190,190,190,190,190,190,190,190,190,190,190,190,190,190,190,190,190,190,190,190,190,190,190,190,190,190,190,190,190,190,190,190,190,190,190,190,190,190,190,190,190,190,190,190,190,190,190,190,190,190,190,190,190,190,190,190,190,190,190,190,190,190,190,190,190,190,190,190,190,190,190,190,190,190,190,190,190,190,190,190,190,190,190,190,190,190,190,190,190,190,190,190,190,190,190,190,190,190,190,190,190,190,190,190,190,190,190,190,190,190,190,190,190,190,190,190,190,190,190,190,
187,188,187,188,187,188,187,188,187,188,187,188,187,188,187,188,187,188,187,188,187,188,187,188,187,188,190,190,190,190,190,190,190,190,190,190,190,190,190,190,190,190,190,190,190,190,190,190,190,190,190,190,190,190,190,190,190,190,190,190,190,190,190,190,190,190,190,190,190,190,190,190,190,190,190,190,190,190,190,190,190,190,190,190,190,190,190,190,190,190,190,190,190,190,190,190,190,190,190,190,190,190,190,190,190,190,190,190,190,190,190,190,190,190,190,190,190,190,190,190,190,190,190,190,190,190,190,190,190,190,190,190,190,190,190,190,190,190,190,190,190,190,190,190,190,190,190,190,190,190,190,190,190,190,190,190,190,190,190,190,190,190,190,190,190,190,190,190,190,190,190,190,190,190,190,190,190,190,190,190,190,190,190,190,190,190,190,190,190,190,190,190,190,190,190,190,190,190,190,190,
187,188,187,188,187,188,187,188,187,188,187,188,187,188,187,188,187,188,187,188,187,188,187,188,187,188,190,190,190,190,190,190,190,190,190,190,190,190,190,190,190,190,190,190,190,190,190,190,190,190,190,190,190,190,190,190,190,190,190,190,190,190,190,190,190,190,190,190,190,190,190,190,190,190,190,190,190,190,190,190,190,190,190,190,190,190,190,190,190,190,190,190,190,190,190,190,190,190,190,190,190,190,190,190,190,190,190,190,190,190,190,190,190,190,190,190,190,190,190,190,190,190,190,190,190,190,190,190,190,190,190,190,190,190,190,190,190,190,190,190,190,190,190,190,190,190,190,190,190,190,190,190,190,190,190,190,190,190,190,190,190,190,190,190,190,190,190,190,190,190,190,190,190,190,190,190,190,190,190,190,190,190,190,190,190,190,190,190,190,190,190,190,190,190,190,190,190,190,190,190,
187,188,187,188,187,188,187,188,187,188,187,188,187,188,187,188,187,188,187,188,187,188,187,188,187,188,190,190,190,190,190,190,190,190,190,190,190,190,190,190,190,190,190,190,190,190,190,190,190,190,190,190,190,190,190,190,190,190,190,190,190,190,190,190,190,190,190,190,190,190,190,190,190,190,190,190,190,190,190,190,190,190,190,190,190,190,190,190,190,190,190,190,190,190,190,190,190,190,190,190,190,190,190,190,190,190,190,190,190,190,190,190,190,190,190,190,190,190,190,190,190,190,190,190,190,190,190,190,190,190,190,190,190,190,190,190,190,190,190,190,190,190,190,190,190,190,190,190,190,190,190,190,190,190,190,190,190,190,190,190,190,190,190,190,190,190,190,190,190,190,190,190,190,190,190,190,190,190,190,190,190,190,190,190,190,190,190,190,190,190,190,190,190,190,190,190,190,190,190,190,
187,188,187,188,187,188,187,188,187,188,187,188,187,188,187,188,187,188,187,188,187,188,187,188,187,188,190,190,190,190,190,190,190,190,190,190,190,190,190,190,190,190,190,190,190,190,190,190,190,190,190,190,190,190,190,190,190,190,190,190,190,190,190,190,190,190,190,190,190,190,190,190,190,190,190,190,190,190,190,190,190,190,190,190,190,190,190,190,190,190,190,190,190,190,190,190,190,190,190,190,190,190,190,190,190,190,190,190,190,190,190,190,190,190,190,190,190,190,190,190,190,190,190,190,190,190,190,190,190,190,190,190,190,190,190,190,190,190,190,190,190,190,190,190,190,190,190,190,190,190,190,190,190,190,190,190,190,190,190,190,190,190,190,190,190,190,190,190,190,190,190,190,190,190,190,190,190,190,190,190,190,190,190,190,190,190,190,190,190,190,190,190,190,190,190,190,190,190,190,190,
187,188,187,188,187,188,187,188,187,188,187,188,187,188,187,188,187,188,187,188,187,188,187,188,187,188,190,190,190,190,190,190,190,190,190,190,190,190,190,190,190,190,190,190,190,190,190,190,190,190,190,190,190,190,190,190,190,190,190,190,190,190,190,190,190,190,190,190,190,190,190,190,190,190,190,190,190,190,190,190,190,190,190,190,190,190,190,190,190,190,190,190,190,190,190,190,190,190,190,190,190,190,190,190,190,190,190,190,190,190,190,190,190,190,190,190,190,190,190,190,190,190,190,190,190,190,190,190,190,190,190,190,190,190,190,190,190,190,190,190,190,190,190,190,190,190,190,190,190,190,190,190,190,190,190,190,190,190,190,190,190,190,190,190,190,190,190,190,190,190,190,190,190,190,190,190,190,190,190,190,190,190,190,190,190,190,190,190,190,190,190,190,190,190,190,190,190,190,190,190,
187,188,187,188,187,188,187,188,187,188,187,188,187,188,187,188,187,188,187,188,187,188,187,188,187,188,190,190,190,190,190,190,190,190,190,190,190,190,190,190,190,190,190,190,190,190,190,190,190,190,190,190,190,190,190,190,190,190,190,190,190,190,190,190,190,190,190,190,190,190,190,190,190,190,190,190,190,190,190,190,190,190,190,190,190,190,190,190,190,190,190,190,190,190,190,190,190,190,190,190,190,190,190,190,190,190,190,190,190,190,190,190,190,190,190,190,190,190,190,190,190,190,190,190,190,190,190,190,190,190,190,190,190,190,190,190,190,190,190,190,190,190,190,190,190,190,190,190,190,190,190,190,190,190,190,190,190,190,190,190,190,190,190,190,190,190,190,190,190,190,190,190,190,190,190,190,190,190,190,190,190,190,190,190,190,190,190,190,190,190,190,190,190,190,190,190,190,190,190,190,
187,188,187,188,187,188,187,188,187,188,187,188,187,188,187,188,187,188,187,188,187,188,187,188,187,188,190,190,190,190,190,190,190,190,190,190,190,190,190,190,190,190,190,190,190,190,190,190,190,190,190,190,190,190,190,190,190,190,190,190,190,190,190,190,190,190,190,190,190,190,190,190,190,190,190,190,190,190,190,190,190,190,190,190,190,190,190,190,190,190,190,190,190,190,190,190,190,190,190,190,190,190,190,190,190,190,190,190,190,190,190,190,190,190,190,190,190,190,190,190,190,190,190,190,190,190,190,190,190,190,190,190,190,190,190,190,190,190,190,190,190,190,190,190,190,190,190,190,190,190,190,190,190,190,190,190,190,190,190,190,190,190,190,190,190,190,190,190,190,190,190,190,190,190,190,190,190,190,190,190,190,190,190,190,190,190,190,190,190,190,190,190,190,190,190,190,190,190,190,190,
187,188,187,188,187,188,187,188,187,188,187,188,187,188,187,188,187,188,187,188,187,188,187,188,187,188,190,190,190,190,190,190,190,190,190,190,190,190,190,190,190,190,190,190,190,190,190,190,190,190,190,190,190,190,190,190,190,190,190,190,190,190,190,190,190,190,190,190,190,190,190,190,190,190,190,190,190,190,190,190,190,190,190,190,190,190,190,190,190,190,190,190,190,190,190,190,190,190,190,190,190,190,190,190,190,190,190,190,190,190,190,190,190,190,190,190,190,190,190,190,190,190,190,190,190,190,190,190,190,190,190,190,190,190,190,190,190,190,190,190,190,190,190,190,190,190,190,190,190,190,190,190,190,190,190,190,190,190,190,190,190,190,190,190,190,190,190,190,190,190,190,190,190,190,190,190,190,190,190,190,190,190,190,190,190,190,190,190,190,190,190,190,190,190,190,190,190,190,190,190,
187,188,187,188,187,188,187,188,187,188,187,188,187,188,187,188,187,188,187,188,187,188,187,188,187,188,190,190,190,190,190,190,190,190,190,190,190,190,190,190,190,190,190,190,190,190,190,190,190,190,190,190,190,190,190,190,190,190,190,190,190,190,190,190,190,190,190,190,190,190,190,190,190,190,190,190,190,190,190,190,190,190,190,190,190,190,190,190,190,190,190,190,190,190,190,190,190,190,190,190,190,190,190,190,190,190,190,190,190,190,190,190,190,190,190,190,190,190,190,190,190,190,190,190,190,190,190,190,190,190,190,190,190,190,190,190,190,190,190,190,190,190,190,190,190,190,190,190,190,190,190,190,190,190,190,190,190,190,190,190,190,190,190,190,190,190,190,190,190,190,190,190,190,190,190,190,190,190,190,190,190,190,190,190,190,190,190,190,190,190,190,190,190,190,190,190,190,190,190,190,
187,188,187,188,187,188,187,188,187,188,187,188,187,188,187,188,187,188,187,188,187,188,187,188,187,188,190,190,190,190,190,190,190,190,190,190,190,190,190,190,190,190,190,190,190,190,190,190,190,190,190,190,190,190,190,190,190,190,190,190,190,190,190,190,190,190,190,190,190,190,190,190,190,190,190,190,190,190,190,190,190,190,190,190,190,190,190,190,190,190,190,190,190,190,190,190,190,190,190,190,190,190,190,190,190,190,190,190,190,190,190,190,190,190,190,190,190,190,190,190,190,190,190,190,190,190,190,190,190,190,190,190,190,190,190,190,190,190,190,190,190,190,190,190,190,190,190,190,190,190,190,190,190,190,190,190,190,190,190,190,190,190,190,190,190,190,190,190,190,190,190,190,190,190,190,190,190,190,190,190,190,190,190,190,190,190,190,190,190,190,190,190,190,190,190,190,190,190,190,190,
187,188,187,188,187,188,187,188,187,188,187,188,187,188,187,188,187,188,187,188,187,188,187,188,187,188,190,190,189,190,189,190,189,190,189,190,189,190,189,190,189,190,189,190,189,190,189,190,189,190,189,190,189,190,189,190,189,190,189,190,189,190,190,190,190,190,190,190,190,190,190,190,190,190,190,190,190,190,190,190,190,190,190,190,190,190,190,190,190,190,190,190,190,190,190,190,190,190,190,190,190,190,190,190,190,190,190,190,190,190,190,190,190,190,190,190,190,190,190,190,190,190,190,190,190,190,190,190,190,190,190,190,190,190,190,190,190,190,190,190,190,190,190,190,190,190,190,190,190,190,190,190,190,190,190,190,190,190,190,190,190,190,190,190,190,190,190,190,190,190,190,190,190,190,190,190,190,190,190,190,190,190,190,190,190,190,190,190,190,190,190,190,190,190,190,190,190,190,190,190,
197,198,197,198,197,198,197,198,197,198,197,198,197,198,197,198,197,198,197,198,197,198,197,198,197,198,199,200,199,200,199,200,199,200,199,200,199,200,199,200,199,200,199,200,199,200,199,200,199,200,199,200,199,200,199,200,199,200,199,200,199,200,199,200,199,200,199,200,199,200,199,200,199,200,199,200,199,200,199,200,199,200,199,200,199,200,199,200,199,200,199,200,199,200,199,200,199,200,199,200,199,200,199,200,199,200,199,200,199,200,199,200,199,200,199,200,199,200,199,200,199,200,199,200,199,200,199,200,199,200,199,200,199,200,199,200,199,200,199,200,199,200,199,200,199,200,199,200,199,200,199,200,199,200,199,200,199,200,199,200,199,200,199,200,199,200,199,200,199,200,199,200,199,200,199,200,199,200,199,200,199,200,199,200,199,200,199,200,199,200,199,200,199,200,199,200,199,200,199,200,
207,208,207,208,207,208,207,208,207,208,207,208,207,208,207,208,207,208,207,208,207,208,207,208,207,208,209,210,209,210,209,210,209,210,209,210,209,210,209,210,209,210,209,210,209,210,209,210,209,210,209,210,209,210,209,210,209,210,209,210,209,210,209,210,209,210,209,210,209,210,209,210,209,210,209,210,209,210,209,210,209,210,209,210,209,210,209,210,209,210,209,210,209,210,209,210,209,210,209,210,209,210,209,210,209,210,209,210,209,210,209,210,209,210,209,210,209,210,209,210,209,210,209,210,209,210,209,210,209,210,209,210,209,210,209,210,209,210,209,210,209,210,209,210,209,210,209,210,209,210,209,210,209,210,209,210,209,210,209,210,209,210,209,210,209,210,209,210,209,210,209,210,209,210,209,210,209,210,209,210,209,210,209,210,209,210,209,210,209,210,209,210,209,210,209,210,209,210,209,210,
217,218,217,218,217,218,217,218,217,218,217,218,217,218,217,218,217,218,217,218,217,218,217,218,217,218,219,220,219,220,219,220,219,220,219,220,219,220,219,220,219,220,219,220,219,220,219,220,219,220,219,220,219,220,219,220,219,220,219,220,219,220,219,220,219,220,219,220,219,220,219,220,219,220,219,220,219,220,219,220,219,220,219,220,219,220,219,220,219,220,219,220,219,220,219,220,219,220,219,220,219,220,219,220,219,220,219,220,219,220,219,220,219,220,219,220,219,220,219,220,219,220,219,220,219,220,219,220,219,220,219,220,219,220,219,220,219,220,219,220,219,220,219,220,219,220,219,220,219,220,219,220,219,220,219,220,219,220,219,220,219,220,219,220,219,220,219,220,219,220,219,220,219,220,219,220,219,220,219,220,219,220,219,220,219,220,219,220,219,220,219,220,219,220,219,220,219,220,219,220,
217,218,217,218,217,218,217,218,217,218,217,218,217,218,217,218,217,218,217,218,217,218,217,218,217,218,219,220,219,220,219,220,219,220,219,220,219,220,219,220,219,220,219,220,219,220,219,220,219,220,219,220,219,220,219,220,219,220,219,220,219,220,219,220,219,220,219,220,219,220,219,220,219,220,219,220,219,220,219,220,219,220,219,220,219,220,219,220,219,220,219,220,219,220,219,220,219,220,219,220,219,220,219,220,219,220,219,220,219,220,219,220,219,220,219,220,219,220,219,220,219,220,219,220,219,220,219,220,219,220,219,220,219,220,219,220,219,220,219,220,219,220,219,220,219,220,219,220,219,220,219,220,219,220,219,220,219,220,219,220,219,220,219,220,219,220,219,220,219,219,220,220,219,219,219,219,219,219,219,219,219,219,219,219,219,219,219,219,219,219,219,219,219,219,219,219,219,219,219,219,
217,218,217,218,217,218,217,218,217,218,217,218,217,218,217,218,217,218,217,218,217,218,217,218,217,218,219,220,219,220,219,220,219,220,219,220,219,220,219,220,219,220,219,220,219,220,219,220,219,220,219,220,219,220,219,220,219,220,219,220,219,219,220,219,220,219,220,219,220,219,220,219,220,219,220,219,220,219,220,219,220,219,220,219,220,219,220,219,220,219,220,219,220,219,220,219,220,219,220,219,220,219,220,219,220,219,220,219,220,219,220,219,220,219,220,219,220,219,220,219,220,219,220,219,220,219,220,219,220,219,220,219,220,219,220,219,220,219,220,219,220,219,220,219,220,219,220,219,220,219,220,219,220,219,220,219,220,219,220,219,220,219,220,219,220,219,220,219,220,219,219,220,220,220,220,220,220,220,220,220,220,220,220,220,220,220,220,220,220,220,220,220,220,220,220,220,220,220,220,220,
217,218,217,218,217,218,217,218,217,218,217,218,217,218,217,218,217,218,217,218,217,218,217,218,217,218,217,218,217,218,217,218,217,218,217,218,217,218,217,218,217,218,217,218,217,218,217,218,217,218,217,218,217,218,217,218,217,218,217,218,217,218,217,218,217,218,217,218,217,218,217,218,217,218,217,218,217,218,217,218,217,218,217,218,217,218,217,218,217,218,217,218,217,218,217,218,217,218,217,218,217,218,217,218,217,218,217,218,217,218,217,218,217,218,217,218,217,218,217,218,217,218,217,218,217,218,217,218,217,218,217,218,217,218,217,218,217,218,217,218,217,218,217,218,217,218,217,218,217,218,217,218,217,218,217,218,217,218,217,218,217,218,217,218,217,218,217,218,217,218,217,218,217,218,217,218,217,218,217,218,217,218,217,218,217,218,217,218,217,218,217,218,217,218,217,218,217,218,217,218,
217,218,217,218,217,218,217,218,217,218,217,218,217,218,217,218,217,218,217,218,217,218,217,218,217,218,217,218,217,218,217,218,217,218,217,218,217,218,217,218,217,218,217,218,217,218,217,218,217,218,217,218,217,218,217,218,217,218,217,218,217,218,217,218,217,218,217,218,217,218,217,218,217,218,217,218,217,218,217,218,217,218,217,218,217,218,217,218,217,218,217,218,217,218,217,218,217,218,217,218,217,218,217,218,217,218,217,218,217,218,217,218,217,218,217,218,217,218,217,218,217,218,217,218,217,218,217,218,217,218,217,218,217,218,217,218,217,218,217,218,217,218,217,218,217,218,217,218,217,218,217,218,217,218,217,218,217,218,217,218,217,218,217,218,217,218,217,218,217,218,217,218,217,218,217,218,217,218,217,218,217,218,217,218,217,218,217,218,217,218,217,218,217,218,217,218,217,218,217,218,
217,218,217,218,217,218,217,218,217,218,217,218,217,218,217,218,217,218,217,218,217,218,217,218,217,218,217,218,217,218,217,218,217,218,217,218,217,218,217,218,217,218,217,218,217,218,217,218,217,218,217,218,217,218,217,218,217,218,217,218,217,218,217,218,217,218,217,218,217,218,217,218,217,218,217,218,217,218,217,218,217,218,217,218,217,218,217,218,217,218,217,218,217,218,217,218,217,218,217,218,217,218,217,218,217,218,217,218,217,218,217,218,217,218,217,218,217,218,217,218,217,218,217,218,217,218,217,218,217,218,217,218,217,218,217,218,217,218,217,218,217,218,217,218,217,218,217,218,217,218,217,218,217,218,217,218,217,218,217,218,217,218,217,218,217,218,217,218,217,218,217,218,217,218,217,218,217,218,217,218,217,218,217,218,217,218,217,218,217,218,217,218,217,218,217,218,217,218,217,218,
217,218,217,218,217,218,217,218,217,218,217,218,217,218,217,218,217,218,217,218,217,218,217,218,217,218,217,218,217,218,217,218,217,218,217,218,217,218,217,218,217,218,217,218,217,218,217,218,217,218,217,218,217,218,217,218,217,218,217,218,217,218,217,218,217,218,217,218,217,218,217,218,217,218,217,218,217,218,217,218,217,218,217,218,217,218,217,218,217,218,217,218,217,218,217,218,217,218,217,218,217,218,217,218,217,218,217,218,217,218,217,218,217,218,217,218,217,218,217,218,217,218,217,218,217,218,217,218,217,218,217,218,217,218,217,218,217,218,217,218,217,218,217,218,217,218,217,218,217,218,217,218,217,218,217,218,217,218,217,218,217,218,217,218,217,218,217,218,217,218,217,218,217,218,217,218,217,218,217,218,217,218,217,218,217,218,217,218,217,218,217,218,217,218,217,218,217,218,217,218,
217,218,217,218,217,218,217,218,217,218,217,218,217,218,217,218,217,218,217,218,217,218,217,218,217,218,217,218,217,218,217,218,217,218,217,218,217,218,217,218,217,218,217,218,217,218,217,218,217,218,217,218,217,218,217,218,217,218,217,218,217,218,217,218,217,218,217,218,217,218,217,218,217,218,217,218,217,218,217,218,217,218,217,218,217,218,217,218,217,218,217,218,217,218,217,218,217,218,217,218,217,218,217,218,217,218,217,218,217,218,217,218,217,218,217,218,217,218,217,218,217,218,217,218,217,218,217,218,217,218,217,218,217,218,217,218,217,218,217,218,217,218,217,218,217,218,217,218,217,218,217,218,217,218,217,218,217,218,217,218,217,218,217,218,217,218,217,218,217,218,217,218,217,218,217,218,217,218,217,218,217,218,217,218,217,218,217,218,217,218,217,218,217,218,217,218,217,218,217,218,
217,218,217,218,217,218,217,218,217,218,217,218,217,218,217,218,217,218,217,218,217,218,217,218,217,218,217,218,217,218,217,218,217,218,217,218,217,218,217,218,217,218,217,218,217,218,217,218,217,218,217,218,217,218,217,218,217,218,217,218,217,218,217,218,217,218,217,218,217,218,217,218,217,218,217,218,217,218,217,218,217,218,217,218,217,218,217,218,217,218,217,218,217,218,217,218,217,218,217,218,217,218,217,218,217,218,217,218,217,218,217,218,217,218,217,218,217,218,217,218,217,218,217,218,217,218,217,218,217,218,217,218,217,218,217,218,217,218,217,218,217,218,217,218,217,218,217,218,217,218,217,218,217,218,217,218,217,218,217,218,217,218,217,218,217,218,217,218,217,218,217,218,217,218,217,218,217,218,217,218,217,218,217,218,217,218,217,218,217,218,217,218,217,218,217,218,217,218,217,218,
217,218,217,218,217,218,217,218,217,218,217,218,217,218,217,218,217,218,217,218,217,218,217,218,217,218,217,218,217,218,217,218,217,218,217,218,217,218,217,218,217,218,217,218,217,218,217,218,217,218,217,218,217,218,217,218,217,218,217,218,217,218,217,218,217,218,217,218,217,218,217,218,217,218,217,218,217,218,217,218,217,218,217,218,217,218,217,218,217,218,217,218,217,218,217,218,217,218,217,218,217,218,217,218,217,218,217,218,217,218,217,218,217,218,217,218,217,218,217,218,217,218,217,218,217,218,217,218,217,218,217,218,217,218,217,218,217,218,217,218,217,218,217,218,217,218,217,218,217,218,217,218,217,218,217,218,217,218,217,218,217,218,217,218,217,218,217,218,217,218,217,218,217,218,217,218,217,218,217,218,217,218,217,218,217,218,217,218,217,218,217,218,217,218,217,218,217,218,217,218,
217,218,217,218,217,218,217,218,217,218,217,218,217,218,217,218,217,218,217,218,217,218,217,218,217,218,217,218,217,218,217,218,217,218,217,218,217,218,217,218,217,218,217,218,217,218,217,218,217,218,217,218,217,218,217,218,217,218,217,218,217,218,217,218,217,218,217,218,217,218,217,218,217,218,217,218,217,218,217,218,217,218,217,218,217,218,217,218,217,218,217,218,217,218,217,218,217,218,217,218,217,218,217,218,217,218,217,218,217,218,217,218,217,218,217,218,217,218,217,218,217,218,217,218,217,218,217,218,217,218,217,218,217,218,217,218,217,218,217,218,217,218,217,218,217,218,217,218,217,218,217,218,217,218,217,218,217,218,217,218,217,218,217,218,217,218,217,218,217,218,217,218,217,218,217,218,217,218,217,218,217,218,217,218,217,218,217,218,217,218,217,218,217,218,217,218,217,218,217,218,
217,218,217,218,217,218,217,218,217,218,217,218,217,218,217,218,217,218,217,218,217,218,217,218,217,218,217,218,217,218,217,218,217,218,217,218,217,218,217,218,217,218,217,218,217,218,217,218,217,218,217,218,217,218,217,218,217,218,217,218,217,218,217,218,217,218,217,218,217,218,217,218,217,218,217,218,217,218,217,218,217,218,217,218,217,218,217,218,217,218,217,218,217,218,217,218,217,218,217,218,217,218,217,218,217,218,217,218,217,218,217,218,217,218,217,218,217,218,217,218,217,218,217,218,217,218,217,218,217,218,217,218,217,218,217,218,217,218,217,218,217,218,217,218,217,218,217,218,217,218,217,218,217,218,217,218,217,218,217,218,217,218,217,218,217,218,217,218,217,218,217,218,217,218,217,218,217,218,217,218,217,218,217,218,217,218,217,218,217,218,217,218,217,218,217,218,217,218,217,218,
217,218,217,218,217,218,217,218,217,218,217,218,217,218,217,218,217,218,217,218,217,218,217,218,217,218,217,218,217,218,217,218,217,218,217,218,217,218,217,218,217,218,217,218,217,218,217,218,217,218,217,218,217,218,217,218,217,218,217,218,217,218,217,218,217,218,217,218,217,218,217,218,217,218,217,218,217,218,217,218,217,218,217,218,217,218,217,218,217,218,217,218,217,218,217,218,217,218,217,218,217,218,217,218,217,218,217,218,217,218,217,218,217,218,217,218,217,218,217,218,217,218,217,218,217,218,217,218,217,218,217,218,217,218,217,218,217,218,217,218,217,218,217,218,217,218,217,218,217,218,217,218,217,218,217,218,217,218,217,218,217,218,217,218,217,218,217,218,217,218,217,218,217,218,217,218,217,218,217,218,217,218,217,218,217,218,217,218,217,218,217,218,217,218,217,218,217,218,217,218
</data>
 </layer>
 <layer id="1" name="Ground-n-Platforms" width="200" height="50">
  <data encoding="csv">
0,0,0,0,0,0,0,0,0,0,0,0,0,0,0,0,0,0,0,0,0,0,0,0,0,190,0,0,0,0,0,0,0,0,0,0,0,0,0,0,0,0,0,0,0,0,0,0,0,0,0,0,0,0,0,0,0,0,0,0,0,0,0,0,0,0,0,0,0,0,0,0,0,0,0,0,0,0,0,0,0,0,0,0,0,0,0,0,0,0,0,0,0,0,0,0,0,0,0,0,0,0,0,0,0,0,0,0,0,0,0,0,0,0,0,0,0,0,0,0,0,0,0,0,0,0,0,0,0,0,0,0,0,0,0,0,0,0,0,0,0,0,0,0,0,0,0,0,0,0,0,0,0,0,0,0,0,0,0,0,0,0,0,0,0,0,0,0,0,0,0,0,0,0,0,0,0,0,0,0,0,0,0,0,0,0,0,0,0,0,0,0,0,0,0,0,0,0,0,0,
0,0,0,0,0,0,0,0,0,0,0,0,0,0,0,0,0,0,0,0,0,0,0,0,190,190,0,0,0,0,0,0,0,0,0,0,0,0,0,0,0,0,0,0,0,0,0,0,0,0,0,0,0,0,0,0,0,0,0,0,0,0,0,0,0,0,0,0,0,0,0,0,0,0,0,0,0,0,0,0,0,0,0,0,0,0,0,0,0,0,0,0,0,0,0,0,0,0,0,0,0,0,0,0,0,0,0,0,0,0,0,0,0,0,0,0,0,0,0,0,0,0,0,0,0,0,0,0,0,0,0,0,0,0,0,0,0,0,0,0,0,0,0,0,0,0,0,0,0,0,0,0,0,0,0,0,0,0,0,0,0,0,0,0,0,0,0,0,0,0,0,0,0,0,0,0,0,0,0,0,0,0,0,0,0,0,0,0,0,0,0,0,0,0,0,0,0,0,0,0,
0,0,0,0,0,0,0,0,0,0,0,0,0,0,0,0,0,0,0,0,0,0,0,190,190,190,190,0,0,0,0,0,0,0,0,0,0,0,0,0,0,0,0,0,0,0,0,0,0,0,0,0,0,0,0,0,0,0,0,0,0,0,0,0,0,0,0,0,0,0,0,0,0,0,0,0,0,0,0,0,0,0,0,0,0,0,0,0,0,0,0,0,0,0,0,0,0,0,0,0,0,0,0,0,0,0,0,0,0,0,0,0,0,0,0,0,0,0,0,0,0,0,0,0,0,0,0,0,0,0,0,0,0,0,0,0,0,0,0,0,0,0,0,0,0,0,0,0,0,0,0,0,0,0,0,0,0,0,0,0,0,0,0,0,0,0,0,0,0,0,0,0,0,0,0,0,0,0,0,0,0,0,0,0,0,0,0,0,0,0,0,0,0,0,0,0,0,0,0,0,
0,0,0,0,0,0,0,0,0,0,0,0,0,0,0,0,0,0,0,0,0,0,0,190,190,190,190,0,0,0,0,0,0,0,0,0,0,0,0,0,0,0,0,0,0,0,0,0,0,0,0,0,0,0,0,0,0,0,0,0,0,0,0,0,0,0,0,0,0,0,0,0,0,0,0,0,0,0,0,0,0,0,0,0,0,0,0,0,0,0,0,0,0,0,0,0,0,0,0,0,0,0,0,154,155,156,0,0,0,0,0,0,0,0,0,0,0,0,0,0,0,0,0,0,0,0,0,0,0,0,0,0,0,0,0,0,0,0,0,0,0,0,0,0,0,0,0,0,0,0,0,0,0,0,0,0,0,0,0,0,0,0,0,0,0,0,0,0,0,0,0,0,0,0,0,0,0,0,0,0,0,0,0,0,0,0,0,0,0,0,0,0,0,0,0,0,0,0,0,0,
0,0,0,0,0,0,0,0,0,0,0,0,0,0,0,0,0,0,0,0,0,0,190,190,190,190,190,0,0,0,0,0,0,0,0,0,0,0,0,0,0,0,0,0,0,0,0,0,0,0,0,0,0,0,0,0,0,0,0,0,0,0,0,0,0,0,0,0,0,0,0,0,0,146,0,0,18,19,19,19,20,0,0,0,0,0,0,0,0,0,0,0,0,0,0,0,0,0,0,0,0,0,0,0,0,0,0,0,0,0,0,0,0,0,0,0,0,154,155,156,0,154,155,156,0,0,0,0,0,0,0,0,0,0,0,0,0,0,0,0,0,0,0,0,0,0,0,0,0,0,0,0,0,0,0,0,0,0,0,0,0,0,0,0,0,0,0,0,0,0,0,0,0,0,0,0,0,0,0,0,0,0,0,0,0,0,0,0,0,0,0,0,0,0,0,0,0,0,0,0,
0,0,0,0,0,0,0,0,0,0,0,0,0,0,0,0,0,0,0,0,0,0,190,190,190,190,190,0,0,0,0,0,0,0,0,0,0,0,0,0,0,0,0,0,0,0,0,0,0,0,0,0,0,0,0,0,0,0,0,0,0,0,0,0,0,0,0,0,0,0,18,19,19,19,19,19,39,39,39,39,39,20,0,0,0,0,0,0,0,0,0,0,0,0,0,0,0,0,0,0,0,0,0,0,0,0,0,0,0,0,0,0,0,0,0,0,0,0,0,0,0,0,0,0,0,0,0,0,0,0,0,0,0,0,0,0,0,0,0,0,0,0,0,0,0,0,0,0,0,0,0,0,0,0,0,0,0,0,0,0,0,0,0,0,0,0,0,0,0,0,0,0,0,0,0,0,0,0,0,0,0,0,0,0,0,0,0,0,0,0,0,0,0,0,0,0,0,0,0,0,
0,0,0,0,0,0,0,0,0,0,0,0,0,0,0,0,0,0,0,0,0,0,190,190,190,190,0,0,0,0,0,0,0,0,0,0,0,0,0,0,0,0,0,0,0,0,0,0,0,0,0,0,0,0,0,0,0,0,0,0,0,0,0,0,0,18,19,19,19,19,39,39,39,39,39,39,39,39,39,39,39,39,20,0,0,0,0,0,0,0,0,0,0,0,0,0,0,0,0,0,0,0,0,0,0,0,0,0,0,0,0,0,0,0,0,0,0,0,0,0,0,0,0,0,0,0,0,0,0,0,0,0,0,0,0,0,0,0,0,0,0,0,0,0,0,0,0,0,0,0,0,0,0,0,0,0,0,0,0,0,0,0,0,0,0,0,0,0,0,0,0,0,0,0,0,0,0,0,0,0,0,0,0,0,0,0,0,0,0,0,0,0,0,0,0,0,0,0,0,0,
0,0,0,0,0,0,0,0,0,0,0,0,0,0,0,0,0,0,0,0,0,0,0,190,190,190,190,0,0,0,0,0,0,0,0,0,0,0,0,0,0,0,0,0,0,0,0,0,0,0,0,0,0,0,0,0,0,0,0,0,0,0,0,18,19,39,39,39,39,39,39,39,39,39,39,39,39,39,39,39,39,39,40,0,0,0,0,0,0,0,0,0,0,0,0,0,0,0,0,0,0,0,0,0,0,0,0,0,0,0,0,0,0,0,0,0,0,0,0,0,0,0,0,0,0,0,0,0,154,155,156,0,0,0,0,0,0,0,0,0,154,155,156,0,0,0,0,0,0,0,0,0,0,0,0,0,0,0,0,0,0,0,154,155,156,0,154,155,156,0,0,0,0,0,0,0,0,0,0,0,0,0,0,0,0,0,0,0,0,0,0,0,0,0,0,0,0,0,0,0,
0,0,0,0,0,0,0,0,0,0,0,0,0,0,0,0,0,0,0,0,0,0,0,0,190,190,0,0,0,0,0,0,0,0,0,0,0,0,0,0,0,0,0,0,0,0,18,19,20,0,0,0,0,0,0,0,0,0,0,0,0,0,0,38,39,39,39,39,39,39,39,39,39,39,39,39,39,39,39,39,39,39,40,0,0,0,0,0,0,0,0,0,0,0,0,0,0,0,0,0,0,0,0,0,0,0,0,0,0,0,0,154,155,156,0,0,0,0,0,0,0,0,0,0,0,0,0,0,0,0,0,0,0,0,0,0,0,0,0,0,0,0,0,0,0,0,0,0,0,0,0,0,0,0,0,0,0,0,0,0,0,0,0,0,0,0,0,0,0,0,0,0,0,0,0,0,0,0,0,0,0,0,0,0,0,0,0,0,0,0,0,0,0,0,0,0,0,0,0,0,
0,0,0,0,0,0,0,0,0,0,62,63,63,63,64,0,0,0,0,0,62,63,63,63,63,64,0,0,0,0,0,0,0,0,0,0,0,0,0,0,0,0,0,0,0,0,38,39,40,0,0,0,0,18,19,20,0,0,0,0,0,0,0,38,39,39,39,39,39,39,39,39,39,39,39,39,39,39,39,39,39,39,40,0,0,0,0,0,154,155,156,0,0,0,0,0,0,0,0,0,0,0,0,0,0,0,0,0,0,0,0,0,0,0,0,0,0,0,0,0,0,157,0,0,0,0,0,0,0,0,0,0,0,0,0,0,0,0,0,0,0,0,0,0,0,0,0,0,0,0,0,0,0,0,0,0,0,0,0,0,0,0,0,0,0,0,0,0,0,0,0,0,0,154,155,156,0,0,0,0,0,0,0,0,0,0,0,0,0,0,0,0,0,0,0,0,0,0,0,0,
0,0,0,0,0,0,0,0,0,0,122,123,123,123,124,0,0,0,0,0,122,123,123,123,123,124,0,0,0,0,0,0,18,19,20,0,0,0,0,0,0,0,0,0,0,0,58,98,60,0,0,0,0,38,39,40,0,0,0,0,18,19,19,39,39,39,39,39,39,39,39,39,39,123,39,39,39,39,39,39,39,39,40,0,0,0,0,0,0,0,0,0,0,0,0,0,0,154,155,156,0,0,0,0,0,0,0,0,0,0,0,0,0,0,0,0,0,0,0,0,0,0,0,0,0,0,0,0,0,0,154,155,156,0,0,0,0,0,0,0,0,0,0,0,0,0,0,154,155,156,0,0,0,0,0,0,0,0,0,0,0,0,0,0,0,0,0,0,0,0,0,0,0,0,0,0,0,0,0,0,0,0,0,0,0,0,0,0,0,0,0,0,0,0,0,0,0,0,0,0,
0,0,0,0,0,0,0,0,0,0,122,123,123,123,124,0,0,0,0,0,122,123,123,123,123,124,0,0,0,0,0,0,38,39,40,0,0,0,0,0,0,0,0,0,0,0,0,117,0,0,0,0,0,58,98,60,0,0,0,18,39,39,39,39,39,39,39,123,123,39,39,39,39,123,39,39,39,39,39,39,39,39,39,19,19,20,0,0,0,0,0,0,0,0,0,0,0,0,0,0,0,0,0,0,154,155,156,0,0,0,0,0,0,0,0,0,0,0,0,0,0,0,0,0,0,0,0,0,0,0,0,0,0,0,0,0,0,0,0,0,0,0,0,0,0,0,0,0,0,0,0,0,0,0,0,157,0,0,0,0,0,0,0,0,0,0,0,0,0,0,0,0,0,0,0,0,0,0,0,0,0,0,0,0,0,0,0,0,0,0,0,0,0,0,0,0,0,0,0,0,
0,0,0,0,0,0,0,0,0,0,122,123,123,123,124,0,0,0,0,0,122,123,123,123,123,124,0,0,0,0,0,0,58,98,60,0,0,0,0,0,18,19,20,0,0,0,0,97,0,0,0,0,0,0,117,0,0,0,0,38,39,39,39,39,39,39,39,39,39,123,39,39,39,123,39,39,39,39,123,123,39,39,39,39,39,39,20,0,0,0,0,0,0,0,0,0,0,0,0,0,0,0,0,0,0,0,0,0,0,0,0,0,0,0,0,0,154,155,156,0,0,0,0,0,0,0,0,0,0,0,0,0,0,0,0,0,0,0,0,0,0,0,0,0,0,0,0,0,0,0,0,0,0,0,0,0,0,0,0,0,0,0,0,0,0,0,0,0,154,155,156,0,0,0,0,0,0,0,0,0,0,0,0,0,0,0,0,0,0,0,0,0,0,0,0,0,0,0,0,0,
0,0,0,0,0,0,0,0,0,0,122,123,123,123,124,0,0,0,0,0,122,123,123,123,123,124,0,0,0,0,0,0,0,117,0,0,0,0,0,0,38,39,40,0,0,0,0,117,0,0,0,0,0,0,117,0,0,0,18,39,39,39,39,39,39,39,39,39,39,123,123,39,39,123,123,39,39,123,123,39,39,39,39,39,39,39,39,20,0,0,0,0,0,0,0,0,0,0,0,0,0,0,0,0,0,0,0,0,0,0,0,0,0,0,0,0,0,0,0,0,0,0,0,154,155,156,0,0,0,0,0,0,0,0,0,0,0,0,0,0,0,0,0,0,0,0,0,0,0,0,0,0,0,0,0,0,0,0,0,0,0,0,0,0,0,0,0,0,0,0,0,0,0,0,0,0,0,0,0,0,0,0,0,0,0,0,0,0,0,0,0,0,0,0,0,0,0,0,0,0,
0,0,0,0,0,0,0,0,0,0,122,123,123,123,124,0,0,0,0,0,122,123,123,123,123,124,0,0,0,0,0,0,0,97,0,0,0,0,0,0,58,98,60,0,0,0,0,117,0,0,0,0,0,0,117,0,0,0,38,39,39,39,39,39,39,39,39,39,39,39,123,123,39,123,123,39,123,123,39,39,39,39,39,39,39,39,39,39,20,0,0,0,0,0,0,0,0,0,0,0,0,0,0,0,0,0,0,0,0,0,154,155,156,0,0,0,0,0,0,0,0,0,0,0,0,0,0,0,0,0,0,0,0,0,0,0,0,0,0,0,0,0,0,0,0,0,0,0,0,0,0,0,0,0,0,0,0,0,0,0,0,0,154,155,156,0,0,0,0,0,154,155,156,0,0,0,0,0,0,0,0,154,155,155,155,155,155,155,155,155,155,155,155,155,155,155,155,155,156,0,
0,0,0,0,0,0,0,0,0,0,122,123,123,123,124,0,0,0,0,0,122,123,123,123,123,124,0,0,0,0,0,0,0,97,0,0,0,0,0,0,0,117,0,0,0,0,0,97,0,0,0,0,0,0,97,0,0,0,38,39,39,39,39,39,39,39,39,39,39,39,39,123,39,123,123,123,123,39,39,39,39,39,39,39,39,39,39,39,40,0,0,0,0,0,0,0,0,0,0,0,0,0,0,0,0,0,0,0,0,0,0,0,0,0,0,0,0,0,0,0,0,0,0,0,0,0,0,0,0,0,0,0,0,0,0,0,0,0,0,0,0,0,0,0,0,0,0,0,0,0,0,0,0,0,0,0,0,154,155,156,0,0,0,0,0,0,0,0,0,0,0,0,0,0,0,0,0,0,0,0,0,0,0,0,0,0,0,0,0,0,0,0,0,0,0,0,0,0,0,0,
0,0,0,0,0,0,0,0,0,0,122,123,123,123,124,0,0,0,0,0,122,123,123,123,123,124,0,0,0,0,0,0,0,97,0,0,0,0,0,0,0,97,0,0,0,0,0,97,0,0,0,0,0,0,117,0,0,0,58,39,39,39,39,39,39,39,39,39,39,39,39,123,123,123,123,123,39,39,39,39,39,39,39,39,39,39,39,39,39,20,0,154,155,156,0,0,0,0,0,157,0,0,0,0,0,0,0,0,0,0,0,0,0,0,0,0,0,0,0,0,0,0,0,0,0,0,0,0,0,0,0,0,0,0,0,0,0,0,0,0,0,157,0,0,0,0,0,0,0,0,0,0,0,0,0,0,0,0,0,0,0,0,0,0,0,0,0,0,0,0,0,0,0,0,0,0,0,0,0,0,0,0,0,0,0,0,0,0,0,0,0,0,0,0,0,0,0,0,0,0,
0,0,0,0,0,0,0,0,0,0,122,123,123,123,124,0,0,0,0,0,122,123,123,123,123,124,0,0,0,0,0,0,0,97,0,0,0,0,0,0,0,97,0,0,0,0,0,117,0,0,0,0,0,0,117,0,0,0,0,38,39,39,39,39,39,39,39,39,39,39,39,39,123,123,123,39,39,39,39,39,39,39,39,39,39,39,39,39,39,40,0,0,0,0,0,0,0,0,0,0,0,0,0,0,154,155,156,0,0,0,0,0,0,0,0,0,0,0,0,0,0,0,0,0,0,0,0,0,0,0,0,0,0,0,0,0,0,0,0,0,0,0,0,0,0,0,154,155,155,155,155,156,0,0,0,0,0,0,0,0,0,0,0,0,0,0,0,0,0,0,0,0,0,0,0,0,0,0,0,0,0,0,0,0,0,0,0,0,0,0,0,0,0,0,0,0,0,0,0,0,
0,0,0,0,0,0,0,0,0,0,122,123,123,123,124,0,0,0,0,0,122,123,123,123,123,124,0,0,0,0,0,0,0,117,0,0,0,0,0,0,0,97,0,0,0,0,0,117,0,0,0,0,0,0,117,0,0,0,0,58,59,39,39,39,123,123,39,39,39,39,39,123,123,123,123,39,39,39,39,39,39,39,39,39,39,39,39,39,39,40,0,0,0,0,0,0,0,0,0,0,0,0,0,0,0,0,0,0,0,0,0,0,0,0,0,0,0,0,0,0,0,0,0,0,0,0,0,0,154,155,155,155,155,155,155,156,0,0,0,0,0,0,0,0,0,0,0,0,0,0,0,0,0,0,154,155,156,0,0,0,0,0,0,0,0,0,0,0,0,0,0,0,154,155,156,0,0,0,0,0,0,0,0,0,0,0,0,0,0,0,0,0,0,0,0,0,0,0,0,0,
0,0,0,0,0,0,0,0,0,0,122,123,123,123,124,0,0,0,0,0,122,123,123,123,123,124,0,0,0,0,0,0,0,97,0,0,0,0,0,0,0,97,0,0,0,0,0,117,0,0,0,0,0,0,117,0,0,0,0,0,0,38,39,39,39,123,123,123,123,123,123,123,123,123,123,39,39,39,39,39,39,39,39,39,39,39,39,39,39,39,20,0,0,0,0,0,0,0,0,0,0,0,0,0,0,0,0,0,0,0,0,0,0,0,0,0,0,0,0,0,0,0,0,0,0,0,0,0,0,0,0,0,0,0,0,0,0,0,0,0,0,0,0,0,0,0,0,0,0,0,0,0,0,0,0,0,0,0,0,0,0,0,0,0,0,0,0,0,0,0,0,0,0,0,0,0,0,0,0,0,0,0,0,0,0,0,0,0,0,0,0,0,0,0,0,0,0,0,0,0,
0,0,0,0,0,0,0,0,0,0,122,123,123,123,124,0,0,0,0,0,122,123,123,123,123,124,0,0,0,0,0,0,0,117,0,0,0,0,0,0,0,97,0,0,0,0,0,117,0,0,0,0,0,0,117,0,0,0,0,0,0,38,39,39,39,39,39,39,123,123,123,123,123,123,123,39,39,39,123,123,123,123,123,39,39,39,39,39,39,39,40,0,0,0,0,0,0,0,0,0,0,0,0,0,0,0,0,0,0,0,0,0,0,0,154,155,156,0,0,0,0,0,0,0,0,0,0,0,0,0,0,0,0,0,0,0,0,0,0,0,0,0,0,0,0,0,0,0,0,0,0,0,0,0,0,0,0,0,154,155,156,0,0,0,0,0,0,0,0,0,0,0,0,0,0,0,0,0,0,0,0,0,0,0,0,0,0,0,0,0,0,0,0,0,0,0,0,0,0,0,
0,0,0,0,0,0,0,0,0,0,122,123,123,123,124,0,0,0,0,0,122,123,123,123,123,124,0,0,0,0,0,0,0,117,0,0,0,0,0,0,0,117,0,0,0,0,0,97,0,0,0,0,0,0,117,0,0,0,0,0,18,39,39,39,39,39,39,39,39,39,39,123,123,123,123,39,123,123,123,39,39,39,39,39,39,39,39,39,39,39,60,0,0,0,0,0,0,0,0,0,0,0,0,0,0,0,0,0,0,0,0,0,0,0,0,0,0,0,0,0,0,0,0,0,0,0,0,0,0,0,0,0,0,0,0,0,0,0,0,0,0,0,0,0,0,0,0,0,0,0,0,0,0,0,0,0,0,0,0,0,0,0,0,0,0,0,0,0,0,0,0,0,0,0,0,0,0,0,0,0,0,0,0,0,0,0,0,0,0,0,0,0,0,0,0,0,0,0,0,0,
0,0,0,0,0,0,0,0,0,0,122,123,123,123,124,0,0,0,0,0,122,123,123,123,123,124,0,0,0,0,0,0,0,117,0,0,0,0,0,0,0,97,0,0,0,0,0,97,0,0,0,0,0,0,97,0,0,0,0,0,38,39,39,39,39,39,39,39,39,39,39,123,123,123,123,123,123,39,39,39,39,39,39,39,39,39,39,39,39,40,0,0,0,0,0,0,0,0,154,155,156,0,0,0,0,0,0,0,0,0,0,0,0,0,0,0,0,0,0,0,0,0,154,155,156,0,0,0,0,0,0,0,0,0,0,154,155,156,0,0,0,0,0,0,0,0,0,0,0,0,0,0,0,0,0,0,0,0,0,0,0,0,0,0,0,0,0,0,0,0,0,0,0,0,0,0,0,0,0,0,0,0,0,0,0,0,0,0,0,0,0,0,0,0,0,0,0,0,0,0,
0,0,0,0,0,0,0,0,0,0,122,123,123,123,124,0,0,0,0,0,122,123,123,123,123,124,0,0,0,0,0,0,0,97,0,0,0,0,0,0,0,97,0,0,0,0,0,117,0,0,0,0,0,0,97,0,0,0,0,0,38,39,39,39,39,39,39,39,39,39,39,123,123,123,123,123,39,39,39,39,39,39,39,39,39,39,39,39,39,60,0,0,0,0,0,0,0,0,0,0,0,0,0,0,154,155,156,0,0,0,0,0,0,0,0,0,0,0,0,0,0,0,0,0,0,0,0,0,0,0,0,0,0,0,0,0,0,0,0,0,0,0,0,0,0,0,0,0,0,0,0,0,0,0,0,0,0,0,0,0,0,0,0,0,0,0,0,0,0,0,0,0,0,0,0,0,0,0,0,0,0,0,0,0,0,0,0,0,0,0,0,0,0,0,0,0,0,0,0,0,
0,0,0,0,0,0,0,0,0,0,122,123,123,123,124,0,0,0,0,0,122,123,123,123,123,124,0,0,0,0,0,0,0,97,0,0,0,0,0,0,0,97,0,0,0,0,0,117,0,0,0,0,0,0,117,0,0,0,0,18,39,39,39,39,39,39,123,123,123,123,123,123,123,123,123,123,39,39,39,39,39,39,39,59,59,59,59,59,60,0,0,0,0,0,0,0,0,0,0,0,0,0,0,0,0,0,0,0,0,0,0,0,0,0,0,0,0,0,0,0,0,0,0,0,0,0,0,0,0,0,0,0,0,0,0,0,0,0,0,0,0,0,0,0,0,0,0,0,0,0,0,0,0,0,0,0,0,0,0,0,0,0,0,0,0,0,0,0,0,0,0,0,0,0,0,0,0,0,0,0,0,0,0,0,0,0,0,0,0,0,0,0,0,0,0,0,0,0,0,0,
0,0,0,0,0,0,0,0,0,0,122,123,123,123,124,0,0,0,0,0,122,123,123,123,123,124,0,0,0,0,0,0,0,117,0,0,0,0,0,0,0,117,0,0,0,0,0,117,0,0,0,0,0,0,97,0,0,0,0,38,39,39,39,39,39,39,39,39,39,39,123,123,123,123,123,39,39,39,39,39,39,39,40,0,0,0,0,0,0,0,0,0,0,0,0,0,0,0,0,0,0,0,0,0,0,0,0,0,0,0,0,0,0,0,0,0,0,0,0,0,0,0,0,0,0,0,0,0,0,0,0,0,0,0,0,0,0,0,0,0,0,0,0,0,0,0,0,0,0,0,0,0,0,0,0,0,0,0,0,0,0,0,0,0,0,0,0,0,0,0,0,0,0,0,0,0,0,0,0,0,0,0,0,0,0,0,0,0,0,0,0,0,0,0,0,0,0,0,0,0,
0,0,0,0,0,0,0,0,0,0,122,123,123,123,124,0,0,0,0,0,122,123,123,123,123,124,0,0,0,0,0,0,0,117,0,0,0,0,0,0,0,97,0,0,0,0,0,97,0,0,0,0,0,0,117,0,0,0,0,38,39,39,39,39,39,39,59,39,39,39,123,123,123,123,123,39,123,123,39,39,39,39,60,0,0,0,0,0,0,0,0,0,0,0,0,0,0,0,0,0,0,0,0,0,0,0,0,0,0,0,0,0,0,0,0,0,0,0,0,0,0,0,0,0,0,0,0,0,0,0,0,0,0,0,0,0,0,0,0,0,0,0,0,0,0,0,0,0,0,0,0,0,0,0,0,0,0,0,0,0,0,0,0,0,0,0,0,0,0,0,0,0,0,0,0,0,0,0,0,0,0,0,0,0,0,0,0,0,0,0,0,0,0,0,0,0,0,0,0,0,
0,0,0,0,0,0,0,0,0,0,122,123,123,123,124,0,0,0,0,0,122,123,123,123,123,124,0,0,0,0,0,0,0,97,0,0,0,0,0,0,0,97,0,0,0,0,0,97,0,0,0,0,0,0,97,0,0,0,0,58,39,39,39,39,39,40,0,58,39,39,39,123,123,123,123,123,123,39,39,39,39,60,0,0,0,0,0,0,0,0,0,0,0,0,0,0,0,0,0,0,0,0,0,0,0,0,0,0,0,0,0,0,0,0,0,0,0,0,0,0,0,0,0,0,0,0,0,0,0,0,0,0,0,0,0,0,0,0,0,0,0,0,0,0,0,0,0,0,0,0,0,0,0,0,0,0,0,0,0,0,0,0,0,0,0,0,0,0,0,0,0,0,0,0,0,0,0,0,0,0,0,0,0,0,0,0,0,0,0,0,0,0,0,0,0,0,0,0,0,0,
0,0,0,0,0,0,0,0,0,0,142,143,143,143,144,0,0,0,0,0,122,123,123,123,123,124,0,0,0,0,0,0,0,97,0,0,0,0,0,0,0,117,0,0,0,0,0,117,0,0,0,0,0,0,97,0,0,0,0,0,38,39,39,39,39,60,0,0,38,39,39,123,123,123,123,39,39,39,39,39,60,0,0,0,0,0,0,0,0,0,0,0,0,0,0,0,0,0,0,0,0,0,0,0,0,0,0,0,0,0,0,0,0,0,0,0,0,0,0,0,0,0,0,0,0,0,0,0,0,0,0,0,0,0,0,0,0,0,0,0,0,0,0,0,0,0,0,0,0,0,0,0,0,0,0,0,0,0,0,0,0,0,0,0,0,0,0,0,0,0,0,0,0,0,0,0,0,0,0,0,0,0,0,0,0,0,0,0,0,0,0,0,0,0,0,0,0,0,0,0,
0,0,0,0,0,0,0,0,0,0,0,0,0,0,0,0,0,0,0,0,122,123,123,123,123,124,0,0,0,0,0,0,0,97,0,0,0,0,0,0,0,97,0,0,0,0,0,97,0,0,0,0,0,0,117,0,0,0,0,0,58,59,59,59,60,0,0,0,58,39,39,123,123,123,123,59,59,59,59,60,0,0,0,0,0,0,0,0,0,0,0,0,0,0,0,0,0,0,0,0,0,0,0,0,0,0,0,0,0,0,0,0,0,0,0,0,0,0,0,0,0,0,0,0,0,0,0,0,0,0,0,0,0,0,0,0,0,0,0,0,0,0,0,0,0,0,0,0,0,0,0,0,0,0,0,0,0,0,0,0,0,0,0,0,0,0,0,0,0,0,0,0,0,0,0,0,0,0,0,0,0,0,0,0,0,0,0,0,0,0,0,0,0,0,0,0,0,0,0,0,
0,0,0,0,0,0,0,0,0,0,0,0,0,0,0,0,0,0,0,0,122,123,123,123,123,124,0,0,0,0,0,0,0,97,0,0,0,0,0,0,0,117,0,0,0,0,0,97,0,0,0,0,0,0,117,0,0,0,0,0,0,0,0,0,0,0,0,0,0,58,59,122,123,123,124,0,0,0,0,0,0,0,0,0,0,0,0,0,0,0,0,0,0,0,0,0,0,0,0,0,0,0,0,0,0,0,0,0,0,0,0,0,0,0,0,0,0,0,0,0,0,0,0,0,0,0,0,0,0,0,0,0,0,0,0,0,0,0,0,0,0,0,0,0,0,0,0,0,0,0,0,0,0,0,0,0,0,0,0,0,0,0,0,0,0,0,0,0,0,0,0,0,0,0,0,0,0,0,0,0,0,0,0,0,0,0,0,0,0,0,0,0,0,0,0,0,0,0,0,0,
0,0,0,0,0,0,0,0,0,0,0,0,0,0,0,0,0,0,0,0,122,123,123,123,123,124,0,0,0,0,0,0,0,97,0,0,0,0,0,0,0,97,0,0,0,0,0,117,0,0,0,0,0,0,117,0,0,0,0,0,0,0,0,0,0,0,0,0,0,0,0,122,123,123,124,0,0,0,0,0,0,0,0,0,0,0,0,0,0,0,0,0,0,0,0,0,0,0,0,0,0,0,0,0,0,0,0,0,0,0,0,0,0,0,0,0,0,0,0,0,0,0,0,0,0,0,0,0,0,0,0,0,0,0,0,0,0,0,0,0,0,0,0,0,0,0,0,0,0,0,0,0,0,0,0,0,0,0,0,0,0,0,0,0,0,0,0,0,0,0,0,0,0,0,0,0,0,0,0,0,0,0,0,0,0,0,0,0,0,0,0,0,0,0,0,0,0,0,0,0,
0,0,0,0,0,0,0,0,0,0,0,0,0,0,0,0,0,0,0,0,122,123,123,123,123,124,0,0,0,0,0,0,0,117,0,0,0,0,0,0,0,97,0,0,0,0,0,117,0,0,0,0,0,0,97,0,0,0,0,0,0,0,0,0,0,0,0,0,0,0,0,122,123,123,124,0,0,0,0,0,0,0,0,0,0,0,0,0,0,0,0,0,0,0,0,0,0,0,0,0,0,0,0,0,0,0,0,0,0,0,0,0,0,0,0,0,0,0,0,0,0,0,0,0,0,0,0,0,0,0,0,0,0,0,0,0,0,0,0,0,0,0,0,0,0,0,0,0,0,0,0,0,0,0,0,0,0,0,0,0,0,0,0,0,0,0,0,0,0,0,0,0,0,0,0,0,0,0,0,0,0,0,0,0,0,0,0,0,0,0,0,0,0,0,0,0,0,0,0,0,
0,0,0,0,0,0,0,0,0,0,62,63,63,63,64,0,0,0,0,0,122,123,123,123,123,124,0,0,0,0,0,0,0,117,0,0,0,0,0,0,0,97,0,0,0,0,0,117,0,0,0,0,0,0,97,0,0,0,0,0,0,0,0,0,0,0,0,0,0,0,0,122,123,123,124,0,0,0,0,0,0,0,0,0,0,0,0,0,0,0,0,0,0,0,0,0,0,0,0,0,0,0,0,0,0,0,0,0,0,0,0,0,0,0,0,0,0,0,0,0,0,0,0,0,0,0,0,0,0,0,0,0,0,0,0,0,0,0,0,0,0,0,0,0,0,0,0,0,0,0,0,0,0,0,0,0,0,0,0,0,0,0,0,0,0,0,0,0,0,0,0,0,0,0,0,0,0,0,0,0,0,0,0,0,0,0,0,0,0,0,0,0,0,0,0,0,0,0,0,0,
0,0,0,0,0,0,0,0,0,0,122,123,123,123,124,0,0,0,0,0,122,123,123,123,123,124,0,0,0,0,0,0,0,117,0,0,0,0,0,0,0,97,0,0,0,0,0,117,0,0,0,0,0,0,117,0,0,0,0,0,0,0,0,0,0,0,0,0,0,0,0,122,123,123,124,0,0,0,0,0,0,0,0,0,0,0,0,0,0,0,0,0,0,0,0,0,0,0,0,0,0,0,0,0,0,0,0,0,0,0,0,0,0,0,0,0,0,0,0,0,0,0,0,0,0,0,0,0,0,0,0,0,0,0,0,0,0,0,0,0,0,0,0,0,0,0,0,0,0,0,0,0,0,0,0,0,0,0,0,0,0,0,0,0,0,0,0,0,0,0,0,0,0,0,0,0,0,0,0,0,0,0,0,0,0,0,0,0,0,0,0,0,0,0,0,0,0,0,0,0,
0,0,0,0,0,0,0,0,0,0,122,123,123,123,124,0,0,0,0,0,122,123,123,123,123,124,0,0,0,0,0,0,0,117,0,0,0,0,0,0,0,117,0,0,0,0,0,117,0,0,0,0,0,0,117,0,0,0,0,0,0,0,0,0,0,0,0,0,0,0,0,122,123,123,124,0,0,0,0,0,0,0,0,0,0,0,0,0,0,0,0,0,0,0,0,0,0,0,0,0,0,0,0,0,0,0,0,0,0,0,0,0,0,0,0,0,0,0,0,0,0,0,0,0,0,0,0,0,0,0,0,0,0,0,0,0,0,0,0,0,0,0,0,0,0,0,0,0,0,0,0,0,0,0,0,0,0,0,0,0,0,0,0,0,0,0,0,0,0,0,0,0,0,0,0,0,0,0,0,0,0,0,0,0,0,0,0,0,0,0,0,0,0,0,0,0,0,0,0,0,
0,0,0,0,0,0,0,0,0,0,122,123,123,123,124,0,0,0,0,0,142,143,143,143,143,144,0,0,0,0,0,0,0,117,0,0,0,0,0,0,0,117,0,0,0,0,0,97,0,0,0,0,0,0,117,0,0,0,0,0,0,0,0,0,0,0,0,0,0,0,0,122,123,123,124,0,0,0,0,0,0,0,0,0,0,0,0,0,0,0,0,0,0,0,0,0,0,0,0,0,0,0,0,0,0,0,0,0,0,0,0,0,0,0,0,0,0,0,0,0,0,0,0,0,0,0,0,0,0,0,0,0,0,0,0,0,0,0,0,0,0,0,0,0,0,0,0,0,0,0,0,0,0,0,0,0,0,0,0,0,0,0,0,0,0,0,0,0,0,0,0,0,0,0,0,0,0,0,0,0,0,0,0,0,0,0,0,0,0,0,0,0,0,0,0,0,0,0,0,0,
0,0,0,0,0,0,0,0,0,0,122,123,123,123,124,0,0,0,0,0,0,0,0,0,0,0,0,0,0,0,0,0,0,117,0,0,0,0,0,0,0,97,0,0,0,0,0,97,0,0,0,0,0,0,117,0,0,0,0,0,0,0,0,0,0,0,0,0,0,0,0,122,123,123,124,0,0,0,0,0,0,0,0,0,0,0,0,0,0,0,0,0,0,0,0,0,0,0,0,0,0,0,0,0,0,0,0,0,0,0,0,0,0,0,0,0,0,0,0,0,0,0,0,0,0,0,0,0,0,0,0,0,0,0,0,0,0,0,0,0,0,0,0,0,0,0,0,0,0,0,0,0,0,0,0,0,0,0,0,0,0,0,0,0,0,0,0,0,0,0,0,0,0,0,0,0,0,0,0,0,0,0,0,0,0,0,0,0,0,0,0,0,0,0,0,0,0,0,0,0,
0,0,0,0,0,0,0,0,0,0,122,123,123,123,124,0,0,0,0,0,0,0,0,0,0,0,0,0,0,0,0,0,0,117,0,0,0,0,0,0,0,97,0,0,0,0,0,117,0,0,0,0,0,0,97,0,0,0,0,0,0,0,0,0,0,0,0,0,0,0,0,122,123,123,124,0,0,0,0,0,0,0,0,0,0,0,0,0,0,0,0,0,0,0,0,0,0,0,0,0,0,0,0,0,0,0,0,0,0,0,0,0,0,0,0,0,0,0,0,0,0,0,0,0,0,0,0,0,0,0,0,0,0,0,0,0,0,0,0,0,0,0,0,0,0,0,0,0,0,0,0,0,0,0,0,0,0,0,0,0,0,0,0,0,0,0,0,0,0,0,0,0,0,0,0,0,0,0,0,0,0,0,0,0,0,0,0,0,0,0,0,0,0,0,0,0,0,0,0,0,
0,0,0,0,0,0,0,0,0,0,122,123,123,123,124,0,0,0,0,0,0,0,0,0,0,0,0,0,0,0,0,0,0,138,0,0,0,0,0,0,0,138,0,0,0,0,0,117,0,0,0,0,0,0,138,0,0,0,0,0,0,0,0,0,0,0,0,0,0,0,0,122,123,123,124,0,0,0,0,0,0,0,0,0,0,0,0,0,0,0,0,0,0,0,0,0,0,0,0,0,0,0,0,0,0,0,0,0,0,0,0,0,0,0,0,0,0,0,0,0,0,0,0,0,0,0,0,0,0,0,0,0,0,0,0,0,0,0,0,0,0,0,0,0,0,0,0,0,0,0,0,0,0,0,0,0,0,0,0,0,0,0,0,0,0,0,0,0,0,0,0,0,0,0,0,0,0,0,0,0,0,0,0,0,0,0,0,0,0,0,0,0,0,0,0,0,0,0,0,0,
63,63,63,63,63,63,63,63,63,63,123,123,123,123,123,63,63,63,63,63,63,63,63,63,63,63,23,23,23,23,23,23,23,23,23,23,23,23,23,23,23,23,23,23,23,23,23,23,23,23,23,23,23,23,23,23,23,23,23,23,23,23,23,23,23,23,23,23,23,23,23,23,23,23,23,23,23,23,23,23,23,23,23,23,23,23,23,23,23,23,23,23,23,23,23,23,23,24,34,34,54,54,54,54,54,54,54,54,54,54,54,54,54,54,54,54,54,54,54,54,54,54,54,54,54,54,54,54,54,54,54,54,54,54,54,54,54,54,54,54,54,54,54,54,54,54,54,54,54,54,54,54,54,54,54,54,54,54,54,54,54,54,54,54,54,54,54,54,54,54,54,54,54,54,54,54,54,54,54,54,54,54,54,54,54,54,54,54,54,54,54,54,54,54,54,54,54,54,54,54,
123,123,123,123,123,123,123,123,123,123,123,123,123,123,123,123,123,123,123,123,123,123,123,123,123,123,123,123,123,123,123,123,123,123,123,123,123,123,123,123,123,123,123,123,123,123,123,123,123,123,123,123,123,123,123,123,123,123,123,123,123,123,123,123,123,123,123,123,123,123,123,123,123,123,123,123,123,123,123,123,123,123,123,123,123,123,123,123,123,123,123,123,123,123,123,123,123,124,74,74,74,74,74,74,74,74,74,74,74,74,74,74,74,74,74,74,74,74,74,74,74,74,74,74,74,74,74,74,74,74,74,74,74,74,74,74,74,74,74,74,74,74,74,74,74,74,74,74,74,74,74,74,74,74,74,74,74,74,74,74,74,74,74,74,74,74,74,74,74,74,74,74,74,74,74,74,74,74,74,74,74,74,74,74,74,74,74,74,74,74,74,74,74,74,74,74,74,74,74,74,
123,123,123,123,123,123,123,123,123,123,123,123,123,123,123,123,123,123,123,123,123,123,123,123,123,123,123,123,123,123,123,123,123,123,123,123,123,123,123,123,123,123,123,123,123,123,123,123,123,123,123,123,123,123,123,123,123,123,123,123,123,123,123,123,123,123,123,123,123,123,123,123,123,123,123,123,123,123,123,123,123,123,123,123,123,123,123,123,123,123,123,123,123,123,123,123,123,124,74,74,74,74,74,74,74,74,74,74,74,74,74,74,74,74,74,74,74,74,74,74,74,74,74,74,74,74,74,74,74,74,74,74,74,74,74,74,74,74,74,74,74,74,74,74,74,74,74,74,74,74,74,74,74,74,74,74,74,74,74,74,74,74,74,74,74,74,74,74,74,74,74,74,74,74,74,74,74,74,74,74,74,74,74,74,74,74,74,74,74,74,74,74,74,74,74,74,74,74,74,74,
123,123,123,123,123,123,123,123,123,123,123,123,123,123,123,123,123,123,123,123,123,123,123,123,123,123,123,123,123,123,123,123,123,123,133,134,135,123,123,123,123,123,123,123,123,123,123,123,123,123,123,123,123,123,123,123,123,123,123,123,123,123,123,123,123,123,123,123,123,123,123,123,123,123,123,123,123,123,123,123,123,123,123,123,123,123,123,123,123,123,96,123,123,123,123,123,123,124,74,74,74,74,74,74,74,74,74,74,74,74,74,74,74,74,74,74,74,74,74,74,74,74,74,74,74,74,74,74,74,74,74,74,74,74,74,74,74,74,74,74,74,74,74,74,74,74,74,74,74,74,74,74,74,74,74,74,74,74,74,74,74,74,74,74,74,74,74,74,74,74,74,74,74,74,74,74,74,74,74,74,74,74,74,74,74,74,74,74,74,74,74,74,74,74,74,74,74,74,74,74,
123,123,123,123,123,123,123,123,123,123,123,123,123,123,123,123,123,123,123,123,123,123,123,123,123,123,123,123,123,123,123,123,123,123,123,123,123,123,123,123,123,123,123,123,123,123,123,123,123,123,123,123,123,123,123,123,123,123,123,123,123,123,123,123,123,123,123,123,123,123,123,123,123,123,123,123,123,123,123,123,123,123,133,134,135,123,123,123,123,123,116,123,123,123,123,123,123,124,74,74,74,74,74,74,74,74,74,74,74,74,74,74,74,74,74,74,74,74,74,74,74,74,74,74,74,74,74,74,74,74,74,74,74,74,74,74,74,74,74,74,74,74,74,74,74,74,74,74,74,74,74,74,74,74,74,74,74,74,74,74,74,74,74,74,74,74,74,74,74,74,74,74,74,74,74,74,74,74,74,74,74,74,74,74,74,74,74,74,74,74,74,74,74,74,74,74,74,74,74,74,
123,123,123,123,123,123,123,123,123,123,123,123,123,123,123,123,123,123,123,123,123,123,123,123,123,123,123,123,123,123,123,123,123,123,123,123,123,123,123,123,123,123,123,123,123,123,123,123,123,123,123,123,123,123,123,123,123,123,123,123,123,123,123,123,123,123,123,123,123,123,123,123,123,123,123,96,123,123,123,123,123,123,123,123,123,123,123,123,123,123,136,123,123,123,123,123,123,124,74,74,74,74,74,74,74,74,74,74,74,74,74,74,74,74,74,74,74,74,74,74,74,74,74,74,74,74,74,74,74,74,74,74,74,74,74,74,74,74,74,74,74,74,74,74,74,74,74,74,74,74,74,74,74,74,74,74,74,74,74,74,74,74,74,74,74,74,74,74,74,74,74,74,74,74,74,74,74,74,74,74,74,74,74,74,74,74,74,74,74,74,74,74,74,74,74,74,74,74,74,74,
123,123,123,123,123,123,123,123,123,123,123,123,123,123,123,123,123,123,123,123,123,123,123,123,123,123,123,123,123,123,123,123,123,123,123,123,123,123,123,123,123,123,123,123,123,123,123,123,123,123,123,123,123,123,123,123,123,123,123,123,123,123,123,123,123,123,123,123,123,123,123,123,123,123,123,116,123,123,123,123,123,123,123,123,123,123,123,123,123,123,123,123,123,123,123,123,123,124,74,74,74,74,74,74,74,74,74,74,74,74,74,74,74,74,74,74,74,74,74,74,74,74,74,74,74,74,74,74,74,74,74,74,74,74,74,74,74,74,74,74,74,74,74,74,74,74,74,74,74,74,74,74,74,74,74,74,74,74,74,74,74,74,74,74,74,74,74,74,74,74,74,74,74,74,74,74,74,74,74,74,74,74,74,74,74,74,74,74,74,74,74,74,74,74,74,74,74,74,74,74,
123,123,123,123,123,123,123,123,123,123,123,123,123,123,123,123,123,123,123,123,123,123,123,123,123,123,123,123,123,123,123,123,123,123,123,123,123,123,123,123,123,123,123,123,123,123,123,123,123,123,123,123,123,123,123,123,133,134,135,123,123,123,123,123,123,123,123,123,123,123,123,123,123,123,123,136,123,123,123,123,123,123,123,123,123,123,123,123,123,123,123,123,123,123,123,123,123,124,74,74,74,74,74,74,74,74,74,74,74,74,74,74,74,74,74,74,74,74,74,74,74,74,74,74,74,74,74,74,74,74,74,74,74,74,74,74,74,74,74,74,74,74,74,74,74,74,74,74,74,74,74,74,74,74,74,74,74,74,74,74,74,74,74,74,74,74,74,74,74,74,74,74,74,74,74,74,74,74,74,74,74,74,74,74,74,74,74,74,74,74,74,74,74,74,74,74,74,74,74,74,
123,123,123,123,123,123,123,123,123,123,123,123,123,123,123,123,123,123,123,123,123,123,123,123,123,123,123,123,123,123,123,123,123,123,123,123,123,123,123,123,123,123,123,123,123,123,123,123,123,123,123,123,123,123,123,123,123,123,123,123,123,123,123,123,123,123,123,123,123,123,123,123,123,123,123,123,123,123,123,123,123,123,123,123,123,123,123,123,123,123,123,123,123,123,123,123,123,124,74,74,74,74,74,74,74,74,74,74,74,74,74,74,74,74,74,74,74,74,74,74,74,74,74,74,74,74,74,74,74,74,74,74,74,74,74,74,74,74,74,74,74,74,74,74,74,74,74,74,74,74,74,74,74,74,74,74,74,74,74,74,74,74,74,74,74,74,74,74,74,74,74,74,74,74,74,74,74,74,74,74,74,74,74,74,74,74,74,74,74,74,74,74,74,74,74,74,74,74,74,74,
123,123,123,123,123,123,123,123,123,123,123,123,123,123,123,123,123,123,123,123,123,123,123,123,123,123,123,123,123,123,123,123,123,123,123,123,123,123,123,123,123,123,123,123,123,123,123,123,123,123,123,123,123,123,123,123,123,123,123,123,123,123,123,123,123,123,123,123,123,123,123,123,123,123,123,123,123,123,123,123,123,123,123,123,123,123,123,123,123,123,123,123,123,123,123,123,123,124,74,74,74,74,74,74,74,74,74,74,74,74,74,74,74,74,74,74,74,74,74,74,74,74,74,74,74,74,74,74,74,74,74,74,74,74,74,74,74,74,74,74,74,74,74,74,74,74,74,74,74,74,74,74,74,74,74,74,74,74,74,74,74,74,74,74,74,74,74,74,74,74,74,74,74,74,74,74,74,74,74,74,74,74,74,74,74,74,74,74,74,74,74,74,74,74,74,74,74,74,74,74
</data>
 </layer>
 <objectgroup id="2" name="Objects">
  <object id="1" name="key" gid="28" x="1257" y="86" width="18" height="18"/>
  <object id="3" name="door1" gid="131" x="3486" y="246.5" width="18" height="18"/>
  <object id="5" name="door2" gid="111" x="3486" y="228.522" width="18" height="18"/>
  <object id="8" name="coin" gid="152" x="188" y="584.5" width="18" height="18"/>
  <object id="9" name="coin" gid="152" x="204.5" y="584.5" width="18" height="18"/>
  <object id="10" name="coin" gid="152" x="230" y="585" width="18" height="18"/>
  <object id="11" name="coin" gid="152" x="237.5" y="567.5" width="18" height="18"/>
  <object id="12" name="coin" gid="152" x="207.5" y="564" width="18" height="18"/>
  <object id="13" name="coin" gid="152" x="306.5" y="490" width="18" height="18"/>
  <object id="14" name="coin" gid="152" x="309.5" y="373.5" width="18" height="18"/>
  <object id="15" name="coin" gid="152" x="285.5" y="274.5" width="18" height="18"/>
  <object id="16" name="coin" gid="152" x="318" y="196.5" width="18" height="18"/>
  <object id="17" name="coin" gid="152" x="206.5" y="86" width="18" height="18"/>
  <object id="18" name="coin" gid="152" x="180.5" y="124.5" width="18" height="18"/>
  <object id="19" name="coin" gid="152" x="215" y="134" width="18" height="18"/>
  <object id="20" name="coin" gid="152" x="251.5" y="145" width="18" height="18"/>
  <object id="21" name="coin" gid="152" x="245.5" y="107.5" width="18" height="18"/>
  <object id="22" name="coin" gid="152" x="205" y="158" width="18" height="18"/>
  <object id="23" name="coin" gid="152" x="666" y="132.5" width="18" height="18"/>
  <object id="24" name="coin" gid="152" x="783" y="106.5" width="18" height="18"/>
  <object id="25" name="coin" gid="152" x="912" y="114" width="18" height="18"/>
  <object id="26" name="coin" gid="152" x="1036" y="107.5" width="18" height="18"/>
  <object id="27" name="coin" gid="152" x="1783" y="372.5" width="18" height="18"/>
  <object id="28" name="coin" gid="152" x="1892" y="291" width="18" height="18"/>
  <object id="29" name="coin" gid="152" x="2227.5" y="220" width="18" height="18"/>
  <object id="30" name="coin" gid="152" x="2007" y="136" width="18" height="18"/>
  <object id="31" name="coin" gid="152" x="2315.5" y="110.5" width="18" height="18"/>
  <object id="32" name="coin" gid="152" x="2363.5" y="306.5" width="18" height="18"/>
  <object id="33" name="coin" gid="152" x="2662.5" y="168.5" width="18" height="18"/>
  <object id="34" name="coin" gid="152" x="2838.5" y="262" width="18" height="18"/>
  <object id="35" name="coin" gid="152" x="3007" y="109.5" width="18" height="18"/>
  <object id="36" name="coin" gid="152" x="3266" y="243" width="18" height="18"/>
  <object id="37" name="coin" gid="152" x="3285" y="243.5" width="18" height="18"/>
  <object id="38" name="coin" gid="152" x="3325" y="244" width="18" height="18"/>
  <object id="39" name="coin" gid="152" x="3362" y="243.5" width="18" height="18"/>
  <object id="40" name="coin" gid="152" x="3402" y="242.5" width="18" height="18"/>
  <object id="41" name="coin" gid="152" x="3439.5" y="242" width="18" height="18"/>
 </objectgroup>
</map>
